!!!!SEGMENT: pl-cz--iii-753--001-008_zebrowski-marcin-jozef--vesperae-in-d-domine-probasti-me.krn
!!!cenid: 17xx:2379
!!!COM: Żebrowski, Marcin Józef
!!!COM-rismID: pe30020322
!!!CDT: 1702-1770/06/29
!!!CNT: Polish
!!!OPR: Vesperae in D
!!!OTL: Domine probasti me
!!!OMV: 008
!!!PDT:
!!!AGN:
!!!YEC: Copyright 2022 Narodowy Instytut Fryderyka Chopina (https://polishscores.org)
!!!YEM: License CC-BY-4.0 (https://creativecommons.org/licenses/by/4.0)
!!!SMS-siglum: PL-CZ
!!!SMS-shelfmark: III-753
!!!SMS-shelfwork: 001-008 M
!!!SMS-variant:
!!!SMS-altvar:
!!!NIFC-rismSourceID: 300033504
!!!NIFC-rismChildID: 300033505
!!!NIFC-islandoraID: pl-cz:25492
!!!URL-pdf-islandora: https://repozytorium.nifc.pl/islandora/object/pl-cz%3A25492/datastream/PDF/view
!!!URL-scan: https://polish.musicsources.pl/pl/lokalizacje/galeria/rekopisy/1484 @EN{Scan on Polish Music Sources Website} @PL{Skany w portalu Dziedzictwo Muzyki Polskiej w otwartym dostępie}
!!!IIIF:
!!!ONB-nifc: UWAGA: części Nieszporów: 1. Dixit Dominus, 2. Confitebor, 3. Beatus vir, 4. Laudate pueri, 5. Laudate Dominum, 6. Credidi, 7. In convertendo, 8. Domine probasti me, 9. Laetatus sum, 10. Nisi Dominus, 11. Lauda Jerusalem, 12. Magnificat, 13. Quia respexit, 14. Deposuit potentes, 15. Gloria patri
!!!AIN: 1 alto 1 bass 2 clrno 1 fagot 1 organ 1 soprn 1 tenor 2 violn
!!!OMD:
!!!OMD-mod: Allegro
!!!key: C
**kern	**fba	**dynam	**kern	**dynam	**kern	**dynam	**kern	**dynam	**kern	**text	**kern	**text	**kern	**text	**kern	**text	**kern	**kern
*group4	*	*	*group4	*	*group3	*	*group3	*	*group2	*	*group2	*	*group2	*	*group2	*	*group1	*group1
*part10	*	*	*part9	*	*part8	*	*part7	*	*part6	*	*part5	*	*part4	*	*part3	*	*part2	*part1
*staff10	*	*	*staff9	*	*staff8	*	*staff7	*	*staff6	*	*staff5	*	*staff4	*	*staff3	*	*staff2	*staff1
*I"Organo.	*	*	*I"Baſsone.	*	*I"Violino Secondo.	*	*I"Violino Primo.	*	*I"Baſso.	*	*I"Tenore.	*	*I"Alto.	*	*I"Canto.	*	*I"Clarino Secondo ex D.	*I"Clarino Primo ex D
*mI"Organo	*	*	*mI"Fagotto	*	*mI"Violino II	*	*mI"Violino I	*	*mI"Basso	*	*mI"Tenore	*	*mI"Alto	*	*mI"Soprano	*	*mI"Clarino II in D	*mI"Clarino I in D
*I'org	*	*	*I'fag	*	*I'vl 2	*	*I'vl 1	*	*I'B	*	*I'T	*	*I'A	*	*I'S	*	*I'clno 2	*I'clno 1
*Iorgan	*	*	*Ifagot	*	*Ivioln	*	*Ivioln	*	*Ibass	*	*Itenor	*	*Ialto	*	*Isoprn	*	*Iclrno	*Iclrno
*ICklav	*	*	*ICww	*	*ICstr	*	*ICstr	*	*ICvox	*	*ICvox	*	*ICvox	*	*ICvox	*	*ICbras	*ICbras
*IGcont	*	*	*IGcont	*	*	*	*	*	*IGcoro	*	*IGcoro	*	*IGcoro	*	*IGcoro	*	*	*
*	*	*	*	*	*	*	*	*	*	*	*	*	*	*	*	*	*tacet	*tacet
*clefF4	*	*	*clefF4	*	*clefG2	*	*clefG2	*	*clefF4	*	*clefC4	*	*clefC3	*	*clefC1	*	*clefG2	*clefG2
*	*	*	*	*	*	*	*	*	*	*	*mclefGv2	*	*mclefG2	*	*mclefG2	*	*	*
*	*	*	*	*	*	*	*	*	*	*	*	*	*	*	*	*	*ITrd-1c-2	*ITrd-1c-2
*k[]	*	*	*k[]	*	*k[]	*	*k[]	*	*k[]	*	*k[]	*	*k[]	*	*k[]	*	*k[]	*k[]
*C:	*	*	*C:	*	*C:	*	*C:	*	*C:	*	*C:	*	*C:	*	*C:	*	*C:	*C:
*M4/4	*	*	*M4/4	*	*M4/4	*	*M4/4	*	*M4/4	*	*M4/4	*	*M4/4	*	*M4/4	*	*M4/4	*M4/4
*met(c)	*	*	*met(c)	*	*met(c)	*	*met(c)	*	*met(c)	*	*met(c)	*	*met(c)	*	*met(c)	*	*met(c)	*met(c)
*mmet(c)	*	*	*mmet(c)	*	*mmet(c)	*	*mmet(c)	*	*mmet(c)	*	*mmet(c)	*	*mmet(c)	*	*mmet(c)	*	*mmet(c)	*mmet(c)
=1	=1	=1	=1	=1	=1	=1	=1	=1	=1	=1	=1	=1	=1	=1	=1	=1	=1	=1
!	!	!	!LO:TX:a:t=Solo:mod=	!	!LO:TX:b:t=Allo&colon;:mod=	!	!LO:TX:t=Allo.:mod=	!	!	!	!	!	!	!	!	!	!	!
!LO:TX:a:t=Solo:mod=	!	!	!LO:TX:rj:a:t=Allo.:mod=	!	!LO:TX:a:t=3.:mod=	!	!LO:TX:a:t=3.:mod=	!	!LO:TX:a:t=6.:mod=	!	!LO:TX:a:t=6.:mod=	!	!LO:TX:t=Allo.:mod=	!	!LO:TX:a:i:t=Solo.:mod=	!	!	!
8.C\L	.	.	8.C/L	.	0r	.	0r	.	00r	.	00r	.	2r	.	8.cc\	Do-	1ryy	1ryy
16C\K	.	.	16C/K	.	.	.	.	.	.	.	.	.	.	.	16cc\	-mi-	.	.
8.E\	.	.	8.E/	.	.	.	.	.	.	.	.	.	.	.	8cc\	-ne	.	.
.	.	.	.	.	.	.	.	.	.	.	.	.	.	.	8cc\	pro-	.	.
16C\Jk	.	.	16C/Jk	.	.	.	.	.	.	.	.	.	.	.	.	.	.	.
!LO:TX:t=P:problem=mixed beam	!	!	!LO:TX:t=P:problem=mixed beam	!	!	!	!	!	!	!	!	!	!	!	!	!	!	!
8.G\L	4	.	8.G\L	.	.	.	.	.	.	.	.	.	4d\	Tu	8.cc\	-ba-	.	.
16GG/K	.	.	16GG/K	.	.	.	.	.	.	.	.	.	.	.	16b\	-sti	.	.
8.BB/	6	.	8.BB/	.	.	.	.	.	.	.	.	.	8d\	co-	4b\	me	.	.
.	.	.	.	.	.	.	.	.	.	.	.	.	8d\	-gno-	.	.	.	.
16GG/Jk	.	.	16GG/Jk	.	.	.	.	.	.	.	.	.	.	.	.	.	.	.
=2	=2	=2	=2	=2	=2	=2	=2	=2	=2	=2	=2	=2	=2	=2	=2	=2	=2	=2
8.C\L	9	.	8.C/L	.	.	.	.	.	.	.	.	.	4d\	-vis-	4ee\	et	1ryy	1ryy
16C\K	.	.	16C/K	.	.	.	.	.	.	.	.	.	.	.	.	.	.	.
!	!	!	!	!	!	!	!	!	!	!	!	!	!	!LO:MO:mod=-ti	!	!	!	!
8.E\	6	.	8.E/	.	.	.	.	.	.	.	.	.	4c/	-sti	8ee\	co-	.	.
.	.	.	.	.	.	.	.	.	.	.	.	.	.	.	8ee\	-gno-	.	.
16C\Jk	.	.	16C/Jk	.	.	.	.	.	.	.	.	.	.	.	.	.	.	.
8.D\L	9	.	8.D/L	.	.	.	.	.	.	.	.	.	8.f\	seſ-	8.ee\	-vis-	.	.
16D\K	.	.	16D/K	.	.	.	.	.	.	.	.	.	16f\	-si	16dd\	-ti	.	.
8.F\	6	.	8.F/	.	.	.	.	.	.	.	.	.	8f\	o-	4dd\	me	.	.
.	.	.	.	.	.	.	.	.	.	.	.	.	8f\	-nem	.	.	.	.
16D\Jk	.	.	16D/Jk	.	.	.	.	.	.	.	.	.	.	.	.	.	.	.
=3	=3	=3	=3	=3	=3	=3	=3	=3	=3	=3	=3	=3	=3	=3	=3	=3	=3	=3
8.E\L	9	.	8.E\L	.	1r	.	1r	.	.	.	.	.	4f\	me-	8r	.	1ryy	1ryy
.	.	.	.	.	.	.	.	.	.	.	.	.	.	.	8gg\	et	.	.
16E\K	.	.	16E\K	.	.	.	.	.	.	.	.	.	.	.	.	.	.	.
8.G\	6	.	8.G\	.	.	.	.	.	.	.	.	.	4e\	-am	16gg\	re-	.	.
.	.	.	.	.	.	.	.	.	.	.	.	.	.	.	16gg\	-sur-	.	.
.	.	.	.	.	.	.	.	.	.	.	.	.	.	.	16gg\	-re-	.	.
16E\Jk	.	.	16E\Jk	.	.	.	.	.	.	.	.	.	.	.	16gg\	-cti	.	.
8.F\L	9	.	8.F\L	.	.	.	.	.	.	.	.	.	8a\	et	4gg\	o-	.	.
.	.	.	.	.	.	.	.	.	.	.	.	.	16a\	reſ-	.	.	.	.
16F\K	.	.	16F\K	.	.	.	.	.	.	.	.	.	16a\	-sur-	.	.	.	.
8.A\	6	.	8.A\	.	.	.	.	.	.	.	.	.	8a\	-re-	[4ff\	.	.	.
.	.	.	.	.	.	.	.	.	.	.	.	.	8a\	-cti	.	.	.	.
16F\Jk	.	.	16F\Jk	.	.	.	.	.	.	.	.	.	.	.	.	.	.	.
!	!	!	!	!	!	!	!	!	!	!	!	!	!LO:LB:g=original	!	!LO:LB:g=original	!	!	!
=4	=4	=4	=4	=4	=4	=4	=4	=4	=4	=4	=4	=4	=4	=4	=4	=4	=4	=4
8G\L	.	.	8G\L	.	2r	.	2r	.	.	.	.	.	8b\	o-	8ff\]	.	1ryy	1ryy
!LO:TX:t=P:problem=mixed beam	!	!	!LO:TX:t=P:problem=mixed beam	!	!	!	!	!	!	!	!	!	!	!	!LO:SIC:s=16eeLL	!	!	!
8C/	7	.	8C/	.	.	.	.	.	.	.	.	.	8cc\	-nem	(16ee\LL	-nem	.	.
!	!	!	!	!	!	!	!	!	!	!	!	!	!	!	!LO:SIC:s=16ddJJ	!	!	!
.	.	.	.	.	.	.	.	.	.	.	.	.	.	.	16dd\JJ)	.	.	.
.	.	.	.	.	.	.	.	.	.	.	.	.	.	.	8qqee/	.	.	.
8G\	.	.	8G\	.	.	.	.	.	.	.	.	.	4bt\	me-	4ddT\	me-	.	.
8GG/J	.	.	8GG/J	.	.	.	.	.	.	.	.	.	.	.	.	.	.	.
8CC/L	.	.	8CC/L	.	4r	.	4r	.	.	.	.	.	4cc\	-am	4cc\	-am	.	.
8C/J	.	.	8C/J	.	.	.	.	.	.	.	.	.	.	.	.	.	.	.
8r	.	.	8r	.	(16ccc\LL	.	(16ccc\LL	.	.	.	.	.	4r	.	4r	.	.	.
.	.	.	.	.	16ee\)	.	16ee\)	.	.	.	.	.	.	.	.	.	.	.
8c\	.	.	8c\	.	(16ee\	.	(16ee\	.	.	.	.	.	.	.	.	.	.	.
.	.	.	.	.	16ff#X\JJ)	.	16ff#X\JJ)	.	.	.	.	.	.	.	.	.	.	.
=5	=5	=5	=5	=5	=5	=5	=5	=5	=5	=5	=5	=5	=5	=5	=5	=5	=5	=5
!	!	!	!	!	!	!	!	!	!	!	!	!	!LO:TX:a:t=8.:mod=	!	!LO:TX:a:t=8.:mod=	!	!	!
8B\L	6	.	8B\L	.	8.ggT\L	.	8.ggT\L	.	0r	.	0r	.	00r	.	00r	.	1ryy	1ryy
8G\J	.	.	8G\J	.	.	.	.	.	.	.	.	.	.	.	.	.	.	.
.	.	.	.	.	(32ff#X\LL	.	(32ff#X\LL	.	.	.	.	.	.	.	.	.	.	.
.	.	.	.	.	32gg\JJJ)	.	32gg\JJJ)	.	.	.	.	.	.	.	.	.	.	.
8r	.	.	8r	.	(16ccc\LL	p	(16ccc\LL	p	.	.	.	.	.	.	.	.	.	.
.	.	.	.	.	16ee\)	.	16ee\)	.	.	.	.	.	.	.	.	.	.	.
8c\	.	.	8c\	.	(16ee\	.	(16ee\	.	.	.	.	.	.	.	.	.	.	.
.	.	.	.	.	16ff#X\JJ)	.	16ff#X\JJ)	.	.	.	.	.	.	.	.	.	.	.
!LO:LB:g=original	!	!	!	!	!	!	!	!	!	!	!	!	!	!	!	!	!	!
8B\L	6	.	8B\L	.	8.ggT\L	.	8.ggT\L	.	.	.	.	.	.	.	.	.	.	.
8G\J	.	.	8G\J	.	.	.	.	.	.	.	.	.	.	.	.	.	.	.
.	.	.	.	.	(32ff#X\LL	.	(32ff#X\LL	.	.	.	.	.	.	.	.	.	.	.
.	.	.	.	.	32gg\JJJ)	.	32gg\JJJ)	.	.	.	.	.	.	.	.	.	.	.
8r	.	.	8r	.	(16gg\LL	f	(16gg\LL	f	.	.	.	.	.	.	.	.	.	.
.	.	.	.	.	16b\)	.	16b\)	.	.	.	.	.	.	.	.	.	.	.
8G\	.	.	8G\	.	(16b\	.	(16b\	.	.	.	.	.	.	.	.	.	.	.
.	.	.	.	.	16cc#X\JJ)	.	16cc#X\JJ)	.	.	.	.	.	.	.	.	.	.	.
=6	=6	=6	=6	=6	=6	=6	=6	=6	=6	=6	=6	=6	=6	=6	=6	=6	=6	=6
8F#X\L	6	.	8F#X\L	.	(16dd\LL	.	(16dd\LL	.	.	.	.	.	.	.	.	.	1ryy	1ryy
.	.	.	.	.	16a\)	.	16a\)	.	.	.	.	.	.	.	.	.	.	.
8D\J	.	.	8D\J	.	(16a\	.	(16a\	.	.	.	.	.	.	.	.	.	.	.
.	.	.	.	.	16b\JJ)	.	16b\JJ)	.	.	.	.	.	.	.	.	.	.	.
!	!	!	!	!	!	!	!LO:SIC:s=(16ccLL	!	!	!	!	!	!	!	!	!	!	!
!	!	!	!	!	!	!	!LO:TX:t=P:problem=mixed beam	!	!	!	!	!	!	!	!	!	!	!
8r	.	.	8r	.	(16cc\LL	.	(>16ccn\LL	.	.	.	.	.	.	.	.	.	.	.
.	.	.	.	.	16e\)	.	16e/)	.	.	.	.	.	.	.	.	.	.	.
8c\	.	.	8c\	.	(16e\	.	(16e/	.	.	.	.	.	.	.	.	.	.	.
.	.	.	.	.	16f#X\JJ)	.	16f#X/JJ)	.	.	.	.	.	.	.	.	.	.	.
8B\L	6	.	8B\L	.	8.g/L	.	8.g/L	.	.	.	.	.	.	.	.	.	.	.
8G\	.	.	8G\	.	.	.	.	.	.	.	.	.	.	.	.	.	.	.
.	.	.	.	.	16a/Jk	.	16a/Jk	.	.	.	.	.	.	.	.	.	.	.
8d\	4	.	8d\	.	4aT/	.	4aT/	.	.	.	.	.	.	.	.	.	.	.
!LO:TX:t=P:problem=mixed beam	!	!	!LO:TX:t=P:problem=mixed beam	!	!	!	!	!	!	!	!	!	!	!	!	!	!	!
8D/J	#	.	8D/J	.	.	.	.	.	.	.	.	.	.	.	.	.	.	.
!	!	!	!LO:PB:g=original	!	!LO:LB:g=original	!	!	!	!	!	!	!	!	!	!	!	!	!
=7	=7	=7	=7	=7	=7	=7	=7	=7	=7	=7	=7	=7	=7	=7	=7	=7	=7	=7
!LO:TX:t=P:problem=mixed beam	!	!	!LO:TX:t=P:problem=mixed beam	!	!	!	!	!	!	!	!	!	!	!	!	!	!	!
8.G\L	.	.	8.G\L	.	4g/	.	4g/	.	4G\	In-	2r	.	.	.	.	.	1ryy	1ryy
16GG/K	.	.	16GG/K	.	.	.	.	.	.	.	.	.	.	.	.	.	.	.
8.BB/	.	.	8.BB/	.	4r	.	4r	.	8G\	-tel-	.	.	.	.	.	.	.	.
.	.	.	.	.	.	.	.	.	8G\	-le-	.	.	.	.	.	.	.	.
16GG/Jk	.	.	16GG/Jk	.	.	.	.	.	.	.	.	.	.	.	.	.	.	.
8.D\L	4	.	8.D\L	.	2r	.	2r	.	4G\	-xis-	4A/	Et	.	.	.	.	.	.
16D\K	.	.	16D\K	.	.	.	.	.	.	.	.	.	.	.	.	.	.	.
8.F#X\	6	.	8.F#X\	.	.	.	.	.	4F#X\	-ti	8A/	o-	.	.	.	.	.	.
.	.	.	.	.	.	.	.	.	.	.	8A/	-mnes	.	.	.	.	.	.
16D\Jk	.	.	16D\Jk	.	.	.	.	.	.	.	.	.	.	.	.	.	.	.
=8	=8	=8	=8	=8	=8	=8	=8	=8	=8	=8	=8	=8	=8	=8	=8	=8	=8	=8
!	!	!	!	!	!LO:TX:a:t=2.:mod=	!	!LO:TX:a:t=2.:mod=	!	!	!	!	!	!	!	!	!	!	!
8.GG/L	9	.	8.GG/L	.	0r	.	0r	.	16B\	co-	8A/	vi-	.	.	.	.	1ryy	1ryy
.	.	.	.	.	.	.	.	.	16B\	-gi-	.	.	.	.	.	.	.	.
.	.	.	.	.	.	.	.	.	16B\	-ta-	8G/	-as	.	.	.	.	.	.
16GG/K	.	.	16GG/K	.	.	.	.	.	16B\	-ti-	.	.	.	.	.	.	.	.
8.BB/	6	.	8.BB/	.	.	.	.	.	8B\	-o-	8G/	me-	.	.	.	.	.	.
.	.	.	.	.	.	.	.	.	8B\	-nes	8G/	-as	.	.	.	.	.	.
16GG/Jk	.	.	16GG/Jk	.	.	.	.	.	.	.	.	.	.	.	.	.	.	.
8.AA/L	9	.	8.AA/L	.	.	.	.	.	8B\	me-	8.c\	prae-	.	.	.	.	.	.
.	.	.	.	.	.	.	.	.	16A\	-as	.	.	.	.	.	.	.	.
16AA/K	.	.	16AA/K	.	.	.	.	.	16A\	de	16c\	-vi-	.	.	.	.	.	.
8.C/	6	.	8.C/	.	.	.	.	.	8A\	lon-	8c\	-dis-	.	.	.	.	.	.
.	.	.	.	.	.	.	.	.	8A\	-ge	8c\	-ti	.	.	.	.	.	.
16AA/Jk	.	.	16AA/Jk	.	.	.	.	.	.	.	.	.	.	.	.	.	.	.
!	!	!	!	!	!	!	!	!	!LO:LB:g=original	!	!	!	!	!	!	!	!	!
=9	=9	=9	=9	=9	=9	=9	=9	=9	=9	=9	=9	=9	=9	=9	=9	=9	=9	=9
8.BB/L	9	.	8.BB/L	.	.	.	.	.	16d\	se-	8c\	qui-	00r	.	00r	.	1ryy	1ryy
.	.	.	.	.	.	.	.	.	16d\	-mi-	.	.	.	.	.	.	.	.
.	.	.	.	.	.	.	.	.	8d\	-tam	8B\	-a	.	.	.	.	.	.
16BB/K	.	.	16BB/K	.	.	.	.	.	.	.	.	.	.	.	.	.	.	.
8.D/	6	.	8.D/	.	.	.	.	.	16d\	me-	8B\	non	.	.	.	.	.	.
.	.	.	.	.	.	.	.	.	16d\	-am	.	.	.	.	.	.	.	.
.	.	.	.	.	.	.	.	.	16d\	et	8B\	est	.	.	.	.	.	.
16BB/Jk	.	.	16BB/Jk	.	.	.	.	.	16d\	fu-	.	.	.	.	.	.	.	.
8.C\L	9	.	8.C/L	.	.	.	.	.	16d\	-ni-	4e\	ser-	.	.	.	.	.	.
.	.	.	.	.	.	.	.	.	16c\	-cu-	.	.	.	.	.	.	.	.
.	.	.	.	.	.	.	.	.	8c\	-lum	.	.	.	.	.	.	.	.
16C\K	.	.	16C/K	.	.	.	.	.	.	.	.	.	.	.	.	.	.	.
8.E\	6	.	8.E/	.	.	.	.	.	8c\	me-	8e\	-mo	.	.	.	.	.	.
.	.	.	.	.	.	.	.	.	16c\	-um	8e\	in	.	.	.	.	.	.
16C\Jk	.	.	16C/Jk	.	.	.	.	.	16c\	in-	.	.	.	.	.	.	.	.
=10	=10	=10	=10	=10	=10	=10	=10	=10	=10	=10	=10	=10	=10	=10	=10	=10	=10	=10
8D/L	#	.	8D/L	.	2r	.	2r	.	8c\	-ves-	8f#X\	lin-	.	.	.	.	1ryy	1ryy
!	!	!	!	!	!	!	!	!	!LO:SIC:s=16BLL	!	!	!LO:MO:mod=-gua	!	!	!	!	!	!
8GG/	.	.	8GG/	.	.	.	.	.	(16B\LL	-ti-	8g\	-qva	.	.	.	.	.	.
!	!	!	!	!	!	!	!	!	!LO:SIC:s=16AJJ	!	!	!	!	!	!	!	!	!
.	.	.	.	.	.	.	.	.	16A\JJ)	.	.	.	.	.	.	.	.	.
.	.	.	.	.	.	.	.	.	8qqB/	.	.	.	.	.	.	.	.	.
8D/	4	.	8D/	.	.	.	.	.	4AT\	-gas-	4f#X\	me-	.	.	.	.	.	.
8DD/J	#	.	8DD/J	.	.	.	.	.	.	.	.	.	.	.	.	.	.	.
!LO:LB:g=original	!	!	!	!	!	!	!	!	!	!	!	!	!	!	!	!	!	!
!LO:TX:t=P:problem=mixed beam	!	!	!LO:TX:t=P:problem=mixed beam	!	!	!	!	!	!	!	!	!LO:MO:mod=-a	!	!	!	!	!	!
8GG/L	.	.	8GG/L	.	4r	.	4r	.	4G\	-ti	4g\	-a.	.	.	.	.	.	.
8G\J	.	.	8G\J	.	.	.	.	.	.	.	.	.	.	.	.	.	.	.
8r	.	.	8r	.	(16gg\LL	.	(16gg\LL	.	4r	.	4r	.	.	.	.	.	.	.
.	.	.	.	.	16b\)	.	16b\)	.	.	.	.	.	.	.	.	.	.	.
8G\	.	.	8G\	.	(16b\	.	(16b\	.	.	.	.	.	.	.	.	.	.	.
.	.	.	.	.	16cc#X\JJ)	.	16cc#X\JJ)	.	.	.	.	.	.	.	.	.	.	.
!	!	!	!	!	!	!	!LO:LB:g=original	!	!	!	!LO:LB:g=original	!	!	!	!	!	!	!
=11	=11	=11	=11	=11	=11	=11	=11	=11	=11	=11	=11	=11	=11	=11	=11	=11	=11	=11
!	!	!	!	!	!	!	!	!	!LO:TX:a:t=2.:mod=	!	!LO:TX:a:t=3.:mod=	!	!	!	!	!	!	!
8F#X\L	6	.	8F#X\L	.	(8.ddT\L	.	(8.ddT\L	.	0r	.	0r	.	.	.	.	.	1ryy	1ryy
8D\J	.	.	8D\J	.	.	.	.	.	.	.	.	.	.	.	.	.	.	.
.	.	.	.	.	32cc#X\LL	.	32cc#X\LL	.	.	.	.	.	.	.	.	.	.	.
.	.	.	.	.	32dd\JJJ)	.	32dd\JJJ)	.	.	.	.	.	.	.	.	.	.	.
!	!	!	!	!	!	!	!LO:SIC:s=(16ffLL	!	!	!	!	!	!	!	!	!	!	!
!	!	!	!	!	!LO:SIC:s=(16ffLL	!	!LO:TX:t=P:problem=mixed beam	!LO:DY:t=p&colon;	!	!	!	!	!	!	!	!	!	!
8r	.	.	8r	.	(16ffn\LL	.	(>16ffn\LL	p	.	.	.	.	.	.	.	.	.	.
.	.	.	.	.	16a\)	p	16a/)	.	.	.	.	.	.	.	.	.	.	.
8Fn\	.	.	8Fn\	.	(16a\	.	(16a/	.	.	.	.	.	.	.	.	.	.	.
.	.	.	.	.	16b\JJ)	.	16b/JJ)	.	.	.	.	.	.	.	.	.	.	.
!	!	!	!	!	!	!	!LO:SIC:v:s=(8.ccT\L	!	!	!	!	!	!	!	!	!	!	!
8E\L	6	.	8E\L	.	(8.ccnT\L	.	(8.cc#t\L	.	.	.	.	.	.	.	.	.	.	.
8C\J	.	.	8C\J	.	.	.	.	.	.	.	.	.	.	.	.	.	.	.
.	.	.	.	.	32b\LL	.	32b\LL	.	.	.	.	.	.	.	.	.	.	.
!	!	!	!	!	!	!	!LO:SIC:v:s=32cc\JJJ)	!	!	!	!	!	!	!	!	!	!	!
.	.	.	.	.	32cc\JJJ)	.	32cc#\JJJ)	.	.	.	.	.	.	.	.	.	.	.
8r	.	.	8r	.	(16ccc\LL	f	(16ccc\LL	f	.	.	.	.	.	.	.	.	.	.
.	.	.	.	.	16ee\)	.	16ee\)	.	.	.	.	.	.	.	.	.	.	.
8c\	.	.	8c\	.	(16ee\	.	(16ee\	.	.	.	.	.	.	.	.	.	.	.
.	.	.	.	.	16ff#X\JJ)	.	16ff#X\JJ)	.	.	.	.	.	.	.	.	.	.	.
=12	=12	=12	=12	=12	=12	=12	=12	=12	=12	=12	=12	=12	=12	=12	=12	=12	=12	=12
8B\L	6	.	8B\L	.	(16gg\LL	.	(16gg\LL	.	.	.	.	.	.	.	.	.	1ryy	1ryy
.	.	.	.	.	16dd\)	.	16dd\)	.	.	.	.	.	.	.	.	.	.	.
8G\J	.	.	8G\J	.	(16dd\	.	(16dd\	.	.	.	.	.	.	.	.	.	.	.
.	.	.	.	.	16ee\JJ)	.	16ee\JJ)	.	.	.	.	.	.	.	.	.	.	.
8r	.	.	8r	.	(16ffn\LL	.	(16ffn\LL	.	.	.	.	.	.	.	.	.	.	.
.	.	.	.	.	16a\)	.	16a\)	.	.	.	.	.	.	.	.	.	.	.
8F\	.	.	8F\	.	(16a\	.	(16a\	.	.	.	.	.	.	.	.	.	.	.
.	.	.	.	.	16b\JJ)	.	16b\JJ)	.	.	.	.	.	.	.	.	.	.	.
8E\L	6	.	8E\L	.	8.cc\L	.	8.cc\L	.	.	.	.	.	.	.	.	.	.	.
8C\	.	.	8C\	.	.	.	.	.	.	.	.	.	.	.	.	.	.	.
.	.	.	.	.	16dd\Jk	.	16dd\Jk	.	.	.	.	.	.	.	.	.	.	.
8G\	4	.	8G\	.	4ddT\	.	4ddT\	.	.	.	.	.	.	.	.	.	.	.
!LO:TX:t=P:problem=mixed beam	!	!	!LO:TX:t=P:problem=mixed beam	!	!	!	!	!	!	!	!	!	!	!	!	!	!	!
8GG/J	3	.	8GG/J	.	.	.	.	.	.	.	.	.	.	.	.	.	.	.
=13	=13	=13	=13	=13	=13	=13	=13	=13	=13	=13	=13	=13	=13	=13	=13	=13	=13	=13
*	*	*	*	*	*2\right	*	*	*	*	*	*	*	*	*	*	*	*	*
!LO:TX:b:t=tutti.:mod=	!	!	!LO:TX:b:i:t=Tutti&colon;:mod=	!	!LO:MO:mod=2.cc	!	!	!	!	!	!	!	!	!	!	!	!	!
8.C/L	.	.	8.C/L	.	[2cc\	.	4cc\	.	8r	.	1r	.	2r	.	8cc\	ec-	1ryy	1ryy
.	.	.	.	.	.	.	.	.	8C/	mi-	.	.	.	.	8cc\	-ce	.	.
16C/K	.	.	16C/K	.	.	.	.	.	.	.	.	.	.	.	.	.	.	.
8.E/	6	.	8.E/	.	.	.	4r	.	16E\	-ra-	.	.	.	.	16cc\	Do-	.	.
.	.	.	.	.	.	.	.	.	16E\	-bi-	.	.	.	.	16cc\	-mi-	.	.
.	.	.	.	.	.	.	.	.	8C/	-lis	.	.	.	.	8cc\	-ne	.	.
16C/Jk	.	.	16C/Jk	.	.	.	.	.	.	.	.	.	.	.	.	.	.	.
*	*	*	*	*	*	*	*2\right	*	*	*	*	*	*	*	*	*	*	*
!	!	!	!	!	!LO:MO:mod=.	!	!	!	!LO:LB:g=original	!	!	!	!	!	!	!	!	!
8.G\L	4	.	8.G\L	.	4cc\]	.	[2dd\	.	8G\	fac-	.	.	8r	.	8cc\	tu	.	.
.	.	.	.	.	.	.	.	.	8GG/	-ta	.	.	16d\	tu	16cc\	co-	.	.
!LO:TX:t=P:problem=mixed beam	!	!	!LO:TX:t=P:problem=mixed beam	!	!	!	!	!	!	!	!	!	!	!	!	!	!	!
16GG/K	.	.	16GG/K	.	.	.	.	.	.	.	.	.	16d\	for-	16cc\	-gno-	.	.
8.BB/	6	.	8.BB/	.	4b\	.	.	.	8BB/	est	.	.	8d\	-ma-	8b\	-vis-	.	.
.	.	.	.	.	.	.	.	.	8GG/	sci-	.	.	8d\	-sti	8b\	-ti	.	.
16GG/Jk	.	.	16GG/Jk	.	.	.	.	.	.	.	.	.	.	.	.	.	.	.
!	!	!	!LO:LB:g=original	!	!	!	!	!	!	!	!	!	!	!	!	!	!	!
=14	=14	=14	=14	=14	=14	=14	=14	=14	=14	=14	=14	=14	=14	=14	=14	=14	=14	=14
!	!	!	!	!	!LO:MO:mod=2.ee	!	!	!	!	!	!	!	!	!	!	!	!	!
8.C\L	9	.	8.C/L	.	[2ee\	.	4dd\]	.	8.C/	-en-	8G/	con-	16d\	me	8.ee\	om-	1ryy	1ryy
.	.	.	.	.	.	.	.	.	.	.	.	.	16d\	et	.	.	.	.
.	.	.	.	.	.	.	.	.	.	.	8G/	-for-	16d\	po-	.	.	.	.
16C\K	.	.	16C/K	.	.	.	.	.	16C/	-ti-	.	.	16d\	-su-	16ee\	-ni-	.	.
8.E\	6	.	8.E/	.	.	.	4cc\	.	4C/	-a	8.G/	-ta-	8c/	-is-	8ee\	-a	.	.
.	.	.	.	.	.	.	.	.	.	.	.	.	8c/	-ti	8ee\	no-	.	.
16C\Jk	.	.	16C/Jk	.	.	.	.	.	.	.	16c\	-ta	.	.	.	.	.	.
!	!	!	!	!	!LO:MO:mod=.	!	!	!	!	!	!	!	!	!	!	!	!	!
8.D\L	9	.	8.D/L	.	4ee\]	.	[2ff\	.	4.D/	tu-	4A/	est	8.f\	su-	8.ee\	-viſ-	.	.
16D\K	.	.	16D/K	.	.	.	.	.	.	.	.	.	16f\	-per	16dd\	-si-	.	.
8.F\	6	.	8.F/	.	4dd\	.	.	.	.	.	8A/	et	4f\	me	4dd\	-ma	.	.
.	.	.	.	.	.	.	.	.	8D/	-a	8d\	non	.	.	.	.	.	.
16D\Jk	.	.	16D/Jk	.	.	.	.	.	.	.	.	.	.	.	.	.	.	.
!	!	!	!	!	!LO:PB:g=original	!	!	!	!	!	!	!	!	!	!LO:PB:g=original	!	!	!
=15	=15	=15	=15	=15	=15	=15	=15	=15	=15	=15	=15	=15	=15	=15	=15	=15	=15	=15
*	*	*	*	*	*	*	*	*	*2\right	*	*	*	*	*	*	*	*	*
!	!	!	!	!	!LO:MO:mod=2.gg	!	!	!	!	!	!	!	!	!	!	!	!	!
8.E\L	9	.	8.E\L	.	[2gg\	.	4ff\]	.	2E\	ex	8.B\	po-	4f\	ma-	4gg\	et	1ryy	1ryy
16E\K	.	.	16E\K	.	.	.	.	.	.	.	16B\	-te-	.	.	.	.	.	.
8.G\	6	.	8.G\	.	.	.	4ee\	.	.	.	8B\	-ro	4e\	-num	4gg\	an-	.	.
.	.	.	.	.	.	.	.	.	.	.	8e\	ad	.	.	.	.	.	.
16E\Jk	.	.	16E\Jk	.	.	.	.	.	.	.	.	.	.	.	.	.	.	.
!LO:LB:g=original	!	!	!	!	!LO:MO:mod=.	!	!	!	!	!	!	!	!	!	!	!	!	!
8.F\L	9	.	8.F\L	.	4gg\]	.	2aa\	.	2F\	me	4c\	e-	4a\	tu-	4gg\	-ti-	.	.
16F\K	.	.	16F\K	.	.	.	.	.	.	.	.	.	.	.	.	.	.	.
8.A\	6	.	8.A\	.	4ff\	.	.	.	.	.	4c\	-am	4a\	-am	4ff\	-qua	.	.
16F\Jk	.	.	16F\Jk	.	.	.	.	.	.	.	.	.	.	.	.	.	.	.
!	!	!	!	!	!	!	!	!	!	!	!	!	!LO:LB:g=original	!	!	!	!	!
=16	=16	=16	=16	=16	=16	=16	=16	=16	=16	=16	=16	=16	=16	=16	=16	=16	=16	=16
8G\L	.	.	8G\L	.	16r	.	16r	.	4G\	quo	8r	.	8r	.	4dd\	quo	1ryy	1ryy
.	.	.	.	.	16b\LL	.	16dd\LL	.	.	.	.	.	.	.	.	.	.	.
8G\	.	.	8G\	.	16b\	.	16dd\	.	.	.	8B\	et	8g\	et	.	.	.	.
.	.	.	.	.	16cc\JJ	.	16ee\JJ	.	.	.	.	.	.	.	.	.	.	.
8G\	7	.	8G\	.	4dd\	.	4ffT\	.	4r	.	8B\	quo	8g\	quo	4r	.	.	.
8G\J	.	.	8G\J	.	.	.	.	.	.	.	8B\	a	8g\	a	.	.	.	.
8G\L	6 4	.	8G\L	.	16r	.	16r	.	8G\	i-	8.c\	fa-	8.g\	fa-	8ee\	i-	.	.
.	.	.	.	.	16cc\LL	.	16ee\LL	.	.	.	.	.	.	.	.	.	.	.
8G\	.	.	8G\	.	16cc\	.	16ee\	.	8G\	-bo	.	.	.	.	8ee\	-bo	.	.
.	.	.	.	.	16dd\JJ	.	16ff\JJ	.	.	.	16c\	-ci-	16g\	-ci-	.	.	.	.
8G\	.	.	8G\	.	4ee\	.	4ggT\	.	8r	.	4c\	-e	4g\	-e	8r	.	.	.
8G\J	.	.	8G\J	.	.	.	.	.	8G\	a	.	.	.	.	8ee\	a	.	.
=17	=17	=17	=17	=17	=17	=17	=17	=17	=17	=17	=17	=17	=17	=17	=17	=17	=17	=17
!	!	!	!	!	!	!	!	!	!	!LO:MO:mod=spi-	!	!	!	!	!	!LO:MO:mod=spi-	!	!
8G\L	7 3	.	8G\L	.	(16dd\LL	.	(16ff\LL	.	8.G\	Spi-	4d\	tu-	4g\	tu-	8.ff\	Spi-	1ryy	1ryy
.	.	.	.	.	16cc\	.	16ee\	.	.	.	.	.	.	.	.	.	.	.
8G\	.	.	8G\	.	16dd\)	.	16ff\)	.	.	.	.	.	.	.	.	.	.	.
.	.	.	.	.	16b|\JJ	.	16gg|\JJ	.	16G\	-ri-	.	.	.	.	16ff\	-ri-	.	.
8G\	6 4	.	8G\	.	(16cc\LL	.	(16ee\LL	.	4G\	-tu	4c\	-a	4g\	-a	4ee\	-tu	.	.
.	.	.	.	.	16b\	.	16dd\	.	.	.	.	.	.	.	.	.	.	.
8G\J	.	.	8G\J	.	16cc\)	.	16ee\)	.	.	.	.	.	.	.	.	.	.	.
.	.	.	.	.	16dd|\JJ	.	16ff|\JJ	.	.	.	.	.	.	.	.	.	.	.
!	!	!	!	!	!	!	!LO:LB:g=original	!	!	!	!	!	!	!	!	!	!	!
8G\L	6 4	.	8G\L	.	8cc\L	.	(16ee\LL	.	4G\	tu-	8.c\	fu-	8.g\	fu-	4ee\	tu-	.	.
.	.	.	.	.	.	.	16dd\)	.	.	.	.	.	.	.	.	.	.	.
8G\	.	.	8G\	.	8cc\	.	(16gg\	.	.	.	.	.	.	.	.	.	.	.
.	.	.	.	.	.	.	16ee\JJ)	.	.	.	16c\	-gi-	16g\	-gi-	.	.	.	.
.	.	.	.	.	.	.	8qqee/	.	.	.	.	.	.	.	.	.	.	.
8G\	5 3	.	8G\	.	8b\	.	4dd\	.	4G\	-o	4B\	-am	4g\	-am	4dd\	-o	.	.
8G\J	.	.	8G\J	.	8b\J	.	.	.	.	.	.	.	.	.	.	.	.	.
!	!	!	!	!	!	!	!	!	!LO:LB:g=original	!	!	!	!	!	!	!	!	!
=18	=18	=18	=18	=18	=18	=18	=18	=18	=18	=18	=18	=18	=18	=18	=18	=18	=18	=18
!	!	!	!	!	!	!	!LO:SIC:s=(8gL	!	!LO:TX:a:t=1.:mod=	!	!LO:TX:a:t=1.:mod=	!	!LO:TX:a:t=1.:mod=	!	!LO:TX:a:t=Solo&colon;:mod=	!	!	!
4GG/	.	.	4GG/	.	4r	.	(8a/L	p	1r	.	1r	.	1r	.	8g/	si	1ryy	1ryy
.	.	.	.	.	.	.	8a/	.	.	.	.	.	.	.	8a\	as-	.	.
!LO:TX:b:t=Solo.:mod=	!	!	!LO:TX:i:b:t=Solo.:mod=	!	!	!	!	!	!	!	!	!	!	!	!	!	!	!
4r	.	.	4r	.	8g/L	p	8b/)	.	.	.	.	.	.	.	8b\	-cen-	.	.
.	.	.	.	.	8a/J	.	8cc|/J	.	.	.	.	.	.	.	16cc\	-de-	.	.
.	.	.	.	.	.	.	.	.	.	.	.	.	.	.	16cc\	-ro	.	.
4G\	.	.	4G\	.	(8b\L	.	(8dd\L	.	.	.	.	.	.	.	(8dd\L	in	.	.
.	.	.	.	.	8cc\	.	8ee\	.	.	.	.	.	.	.	8ee\J)	.	.	.
4r	.	.	4r	.	8dd\)	.	8ff\)	.	.	.	.	.	.	.	8ff\	cae-	.	.
.	.	.	.	.	8ee|\J	.	8gg|\J	.	.	.	.	.	.	.	8gg\	-lum	.	.
=19	=19	=19	=19	=19	=19	=19	=19	=19	=19	=19	=19	=19	=19	=19	=19	=19	=19	=19
!LO:TX:b:t=tutti:mod=	!	!	!LO:TX:b:i:t=tutti:mod=	!	!	!LO:DY:t=for&colon;	!	!	!	!	!	!	!	!	!	!	!	!
8BB/L	7 5	.	8BB/L	.	8ff\	f	8aa\	f	8BB/	tu	8d\	tu	8a\	tu	8ff\	tu	1ryy	1ryy
8BB/	6 4	.	8BB/	.	4ee\	.	4gg\	.	4BB/	il-	4G/	il-	4g\	il-	4ee\	il-	.	.
8BB/	5 3	.	8BB/	.	.	.	.	.	.	.	.	.	.	.	.	.	.	.
8BB/J	.	.	8BB/J	.	8dd\	.	8ff\	.	8BB/	-lic	8G/	-lic-	8f\	-lic	8dd\	-lic	.	.
.	.	.	.	.	8qqee/	.	8qqgg/	.	.	.	.	.	.	.	.	.	.	.
!	!	!	!	!	!LO:SIC:s=(8ddL	!	!	!	!	!	!	!	!	!	!	!	!	!
8C/L	4 9	.	8C/L	.	8dd\L	.	(8ff\L	.	4C/	es	4G/	-es	(8f\L	es	(8dd\L	es	.	.
!LO:TX:t=P:problem=mixed beam	!	!	!LO:TX:t=P:problem=mixed beam	!	!LO:SIC:s=8ccJ)	!	!	!	!	!	!	!	!	!	!	!	!	!
8c\J	3 8	.	8c\J	.	8cc\J	.	8ee\J)	.	.	.	.	.	8e\J)	.	8cc\J)	.	.	.
8C\L	.	.	8C/L	.	4r	.	4r	.	4r	.	4r	.	4r	.	4r	.	.	.
16D\L	.	.	16D/L	.	.	.	.	.	.	.	.	.	.	.	.	.	.	.
16E\JJ	.	.	16E/JJ	.	.	.	.	.	.	.	.	.	.	.	.	.	.	.
=20	=20	=20	=20	=20	=20	=20	=20	=20	=20	=20	=20	=20	=20	=20	=20	=20	=20	=20
!	!	!	!LO:TX:a:i:t=Solo.:mod=	!	!LO:TX:a:t=1.:mod=	!	!LO:TX:a:t=1.:mod=	!	!LO:TX:a:rj:t=Solo.:mod=	!	!LO:TX:a:t=1.:mod=	!	!LO:TX:a:t=1.:mod=	!	!LO:TX:a:t=1.:mod=	!	!	!
4F\	6	.	4F\	.	1r	.	1r	.	8d\	si	1r	.	1r	.	1r	.	1ryy	1ryy
.	5	.	.	.	.	.	.	.	8c\	des-	.	.	.	.	.	.	.	.
!LO:TX:rj:b:t=Solo.:mod=	!	!	!	!	!	!	!	!	!	!	!	!	!	!	!	!	!	!
4D/	6	.	4D\	.	.	.	.	.	8B\	-cen-	.	.	.	.	.	.	.	.
.	5	.	.	.	.	.	.	.	16A\	-de-	.	.	.	.	.	.	.	.
.	.	.	.	.	.	.	.	.	16A\	-ro	.	.	.	.	.	.	.	.
4E\	#	.	4E\	.	.	.	.	.	8G#X\	in	.	.	.	.	.	.	.	.
.	.	.	.	.	.	.	.	.	8Fn\	in-	.	.	.	.	.	.	.	.
4r	.	.	4r	.	.	.	.	.	8D#X/	-fer-	.	.	.	.	.	.	.	.
.	.	.	.	.	.	.	.	.	8E\	-num	.	.	.	.	.	.	.	.
=21	=21	=21	=21	=21	=21	=21	=21	=21	=21	=21	=21	=21	=21	=21	=21	=21	=21	=21
*	*	*	*	*	*	*	*	*	*	*	*2\right	*	*2\right	*	*2\right	*	*	*
8r	.	.	8r	.	8e/L	.	8dd\L	.	2G#X\	a-	2B\	a-	2e\	a-	2dd\	a-	1ryy	1ryy
!LO:TX:b:i:t=tutti&colon;:mod=	!	!	!	!	!	!	!	!	!	!	!	!	!	!	!	!	!	!
8G#X\L	6 5	.	8G#X\L	.	8e/	.	8.bb\J	.	.	.	.	.	.	.	.	.	.	.
8G#\	.	.	8G#\	.	8e/	.	.	.	.	.	.	.	.	.	.	.	.	.
.	.	.	.	.	.	.	16gg#X\LL	.	.	.	.	.	.	.	.	.	.	.
8G#\J	.	.	8G#\J	.	8e/J	.	16ee\	.	.	.	.	.	.	.	.	.	.	.
.	.	.	.	.	.	.	16dd\JJ	.	.	.	.	.	.	.	.	.	.	.
!LO:TX:t=P:problem=mixed beam	!	!	!LO:TX:t=P:problem=mixed beam	!	!LO:SIC:s=(16eLL	!	!	!	!	!	!	!	!	!	!	!	!	!
8AA/L	.	.	8AA/L	.	16e/LL	.	(16cc\LL	.	4A\	-des	4A/	-des	4e\	-des	4cc\	-des	.	.
.	.	.	.	.	16a/	.	16a\	.	.	.	.	.	.	.	.	.	.	.
8A\	.	.	8A\	.	16cc/	.	16cc\	.	.	.	.	.	.	.	.	.	.	.
!	!	!	!	!	!LO:SIC:s=16eeJJ)	!	!	!	!	!	!	!	!	!	!	!	!	!
.	.	.	.	.	16ee/JJ	.	16ee\JJ)	.	.	.	.	.	.	.	.	.	.	.
!	!	!	!	!	!	!	!	!	!	!	!	!	!LO:TX:b:i:t=Volti:mod=	!	!	!	!	!
8c\	6	.	8c\	.	16aa\LL	.	16aa\LL	.	4r	.	4r	.	4r	.	4r	.	.	.
!	!	!	!	!	!	!	!LO:SIC:v:s=16gg	!	!	!	!	!	!	!	!	!	!	!
.	.	.	.	.	16gg\	.	16gg#\	.	.	.	.	.	.	.	.	.	.	.
8A\J	.	.	8A\J	.	16ff\	.	16ff\	.	.	.	.	.	.	.	.	.	.	.
.	.	.	.	.	16ee\JJ	.	16ee\JJ	.	.	.	.	.	.	.	.	.	.	.
!LO:LB:g=original	!	!	!	!	!LO:LB:g=original	!	!	!	!	!	!LO:LB:g=original	!	!LO:LB:g=original	!	!LO:LB:g=original	!	!	!
=22	=22	=22	=22	=22	=22	=22	=22	=22	=22	=22	=22	=22	=22	=22	=22	=22	=22	=22
8.d\L	.	.	8.d\L	.	(16ff\LL	.	(16ff\LL	.	16d\	e-	2r	.	8r	.	8r	.	1ryy	1ryy
.	.	.	.	.	16ee\	.	16ee\	.	16d\	-te-	.	.	.	.	.	.	.	.
.	.	.	.	.	16ff\)	.	16ff\)	.	8d\	-nim	.	.	8a\	et	8ff\	si	.	.
16d\K	.	.	16d\K	.	16dd|\JJ	.	16dd|\JJ	.	.	.	.	.	.	.	.	.	.	.
8.B\	6 5	.	8.B\	.	(16dd\LL	.	(16dd\LL	.	8B\	il-	.	.	8g\	ha-	8ff\	sum-	.	.
.	.	.	.	.	16cc\	.	16cc\	.	.	.	.	.	.	.	.	.	.	.
.	.	.	.	.	16dd\)	.	16dd\)	.	8B\	-luc	.	.	8g\	-bi-	16ff\	-pse-	.	.
16B\Jk	.	.	16B\Jk	.	16b|\JJ	.	16b|\JJ	.	.	.	.	.	.	.	16ff\	-ro	.	.
!	!	!	!LO:LB:g=original	!	!	!	!	!	!LO:LB:g=original	!	!	!	!	!	!	!	!	!
8.G\L	7	.	8.G\L	.	(16b/LL	.	(16b/LL	.	8G\	ma-	8B\	et	4g\	-ta-	4ff\	pen-	.	.
.	.	.	.	.	16a/	.	16a/	.	.	.	.	.	.	.	.	.	.	.
.	.	.	.	.	16b/)	.	16b/)	.	8G\	-nus	16B\	di-	.	.	.	.	.	.
16G\K	.	.	16G\K	.	16g|/JJ	.	16g|/JJ	.	.	.	16B\	-xi	.	.	.	.	.	.
8.B\	6 5	.	8.B\	.	16gg\LL	.	16gg\LL	.	8B\	tu-	8d\	for-	4g\	-bo	4ff\	-nas	.	.
.	.	.	.	.	16ff\	.	16ff\	.	.	.	.	.	.	.	.	.	.	.
.	.	.	.	.	16ee\	.	16ee\	.	16B\	-a	16d\	-si-	.	.	.	.	.	.
16B\Jk	.	.	16B\Jk	.	16dd\JJ	.	16dd\JJ	.	16B\	de-	16d\	-tan	.	.	.	.	.	.
=23	=23	=23	=23	=23	=23	=23	=23	=23	=23	=23	=23	=23	=23	=23	=23	=23	=23	=23
8.c\L	.	.	8.c\L	.	(16ee\LL	.	(16ee\LL	.	8.c\	-du-	16c\	te-	8g\	in	4ee\	mae-	1ryy	1ryy
.	.	.	.	.	16dd\	.	16dd\	.	.	.	16c\	-ne-	.	.	.	.	.	.
.	.	.	.	.	16ee\)	.	16ee\)	.	.	.	8c\	-brae	8g\	ex-	.	.	.	.
16c\K	.	.	16c\K	.	16cc|\JJ	.	16cc|\JJ	.	16c\	-cet	.	.	.	.	.	.	.	.
8.A\	6 5	.	8.A\	.	(16cc\LL	.	(16cc\LL	.	8A\	me	8c\	con-	8f\	-tre-	8ee\	-as	.	.
.	.	.	.	.	16b\	.	16b\	.	.	.	.	.	.	.	.	.	.	.
.	.	.	.	.	16cc\)	.	16cc\)	.	16A\	et	8c\	-cul-	8f\	-mis	8ee\	di-	.	.
!	!	!	!	!	!	!	!LO:SIC:v:t=custos a	!	!	!	!	!	!	!	!	!	!	!
16A\Jk	.	.	16A\Jk	.	16a|\JJ	.	16a|\JJ	.	16A\	te-	.	.	.	.	.	.	.	.
!	!	!	!	!	!	!	!LO:PB:g=original	!	!	!	!	!	!	!	!	!	!	!
8.F\L	7	.	8.F\L	.	(16a/LL	.	(16a/LL	.	8.F\	-ne-	8.A/	-ca-	4f\	ma-	8.ee\	-lu-	.	.
.	.	.	.	.	16g/	.	16g/	.	.	.	.	.	.	.	.	.	.	.
.	.	.	.	.	16a/)	.	16a/)	.	.	.	.	.	.	.	.	.	.	.
16F\K	.	.	16F\K	.	16f|/JJ	.	16f|/JJ	.	16F\	-bit	16A/	-bunt	.	.	16ee\	-cu-	.	.
8.A\	6 5	.	8.A\	.	16ff\LL	.	16ff\LL	.	4A\	me	4c\	me	4f\	-ris	4ee\	-lo	.	.
.	.	.	.	.	16ee\	.	16ee\	.	.	.	.	.	.	.	.	.	.	.
.	.	.	.	.	16dd\	.	16dd\	.	.	.	.	.	.	.	.	.	.	.
16A\Jk	.	.	16A\Jk	.	16cc\JJ	.	16cc\JJ	.	.	.	.	.	.	.	.	.	.	.
=24	=24	=24	=24	=24	=24	=24	=24	=24	=24	=24	=24	=24	=24	=24	=24	=24	=24	=24
8.B\L	.	.	8.B\L	.	(16dd\LL	.	(16dd\LL	.	8B\	dex-	2B\	et	(4f\	et	2dd\	et	1ryy	1ryy
.	.	.	.	.	16cc\	.	16cc\	.	.	.	.	.	.	.	.	.	.	.
.	.	.	.	.	16dd\)	.	16dd\)	.	16B\	-te-	.	.	.	.	.	.	.	.
16B\K	.	.	16B\K	.	16b|\JJ	.	16b|\JJ	.	16B\	-ra	.	.	.	.	.	.	.	.
8.G#X\	6 5	.	8.G#X\	.	(16b/LL	.	(16b/LL	.	8G#X\	tu-	.	.	4e\)	.	.	.	.	.
.	.	.	.	.	16a/	.	16a/	.	.	.	.	.	.	.	.	.	.	.
.	.	.	.	.	16b/)	.	16b/)	.	8G#\	-a	.	.	.	.	.	.	.	.
16G#\Jk	.	.	16G#\Jk	.	16g#X|/JJ	.	16g#X|/JJ	.	.	.	.	.	.	.	.	.	.	.
8.E\L	7 #	.	8.E\L	.	(16g#/LL	.	(16g#/LL	.	4E\	et	2B\	nox	2e\	nox	2dd\	nox	.	.
.	.	.	.	.	16f/	.	16f/	.	.	.	.	.	.	.	.	.	.	.
.	.	.	.	.	16g#/)	.	16g#/)	.	.	.	.	.	.	.	.	.	.	.
16E\K	.	.	16E\K	.	16e|/JJ	.	16e|/JJ	.	.	.	.	.	.	.	.	.	.	.
8.G#X\	6 5	.	8.G#X\	.	16ee\LL	.	16ee\LL	.	8r	.	.	.	.	.	.	.	.	.
.	.	.	.	.	16dd\	.	16dd\	.	.	.	.	.	.	.	.	.	.	.
.	.	.	.	.	16cc\	.	16cc\	.	8G#X\	nox	.	.	.	.	.	.	.	.
16G#\Jk	.	.	16G#\Jk	.	16b\JJ	.	16b\JJ	.	.	.	.	.	.	.	.	.	.	.
=25	=25	=25	=25	=25	=25	=25	=25	=25	=25	=25	=25	=25	=25	=25	=25	=25	=25	=25
8.A\L	.	.	8.A\L	.	(16cc\LL	.	(16cc\LL	.	4A\	il-	4A/	il-	4e\	il-	4cc\	il-	1ryy	1ryy
.	.	.	.	.	16b\	.	16b\	.	.	.	.	.	.	.	.	.	.	.
.	.	.	.	.	16cc\)	.	16cc\)	.	.	.	.	.	.	.	.	.	.	.
16A\K	.	.	16A\K	.	16a|\JJ	.	16a|\JJ	.	.	.	.	.	.	.	.	.	.	.
8.F\	6	.	8.F\	.	(16a/LL	.	(16a/LL	.	8F\	-lu-	8A/	-lu-	8a\	-lu-	8dd\	-lu-	.	.
.	.	.	.	.	16g/	.	16g/	.	.	.	.	.	.	.	.	.	.	.
.	.	.	.	.	16a/)	.	16a/)	.	8F\	-mi-	8A/	-mi-	8a\	-mi-	8dd\	-mi-	.	.
16F\Jk	.	.	16F\Jk	.	16f|/JJ	.	16f|/JJ	.	.	.	.	.	.	.	.	.	.	.
!	!	!	!	!	!	!	!	!	!LO:LB:g=original	!	!	!	!	!	!	!	!	!
8.D\L	.	.	8.D\L	.	(16f/LL	.	(16f/LL	.	8.D/	-na-	8.A/	-na-	8.f\	-na-	8.dd\	-na-	.	.
.	.	.	.	.	16e/	.	16e/	.	.	.	.	.	.	.	.	.	.	.
.	.	.	.	.	16f/)	.	16f/)	.	.	.	.	.	.	.	.	.	.	.
16D\K	.	.	16D\K	.	16d|/JJ	.	16d|/JJ	.	16D/	-ti-	16A/	-ti-	16f\	-ti-	16dd\	-ti-	.	.
8.F\	6	.	8.F\	.	16dd\LL	.	16dd\LL	.	4F\	-o	4A/	-o	4a\	-o	4dd\	-o	.	.
.	.	.	.	.	16cc\	.	16cc\	.	.	.	.	.	.	.	.	.	.	.
.	.	.	.	.	16b\	.	16b\	.	.	.	.	.	.	.	.	.	.	.
16G\Jk	.	.	16G\Jk	.	16a\JJ	.	16a\JJ	.	.	.	.	.	.	.	.	.	.	.
!	!	!	!	!	!LO:LB:g=original	!	!	!	!	!	!	!	!	!	!	!	!	!
=26	=26	=26	=26	=26	=26	=26	=26	=26	=26	=26	=26	=26	=26	=26	=26	=26	=26	=26
4E\	#	.	4E\	.	8g#X/	.	(32g#X/LLL	.	2E\	me-	2B\	me-	2g#X\	me-	2dd\	me-	1ryy	1ryy
.	.	.	.	.	.	.	32f/JJ	.	.	.	.	.	.	.	.	.	.	.
.	.	.	.	.	.	.	8.e/J)	.	.	.	.	.	.	.	.	.	.	.
.	.	.	.	.	8r	.	.	.	.	.	.	.	.	.	.	.	.	.
4r	.	.	4r	.	(32g#X/LLL	.	(32b/LLL	.	.	.	.	.	.	.	.	.	.	.
.	.	.	.	.	32f/JJ	.	32a/JJ	.	.	.	.	.	.	.	.	.	.	.
.	.	.	.	.	8.e/J)	.	8.g#X/J)	.	.	.	.	.	.	.	.	.	.	.
4E\	#	.	4E\	.	(32b/LLL	.	(32dd\LLL	.	2E\	-a	2B\	-a	2g#\	-a	2dd\	-a	.	.
.	.	.	.	.	32a/JJ	.	32cc\JJ	.	.	.	.	.	.	.	.	.	.	.
.	.	.	.	.	8.g#X/J)	.	8.b\J)	.	.	.	.	.	.	.	.	.	.	.
4r	.	.	4r	.	(32dd\LLL	.	(32ff\LLL	.	.	.	.	.	.	.	.	.	.	.
.	.	.	.	.	32cc\JJ	.	32ee\JJ	.	.	.	.	.	.	.	.	.	.	.
.	.	.	.	.	8.b\J)	.	8.dd\J)	.	.	.	.	.	.	.	.	.	.	.
!LO:LB:g=original	!	!	!	!	!	!	!	!	!	!	!	!	!LO:LB:g=original	!	!	!	!	!
=27	=27	=27	=27	=27	=27	=27	=27	=27	=27	=27	=27	=27	=27	=27	=27	=27	=27	=27
8AA/L	.	.	8AA/L	.	4.a/	.	(8cc\L	.	8AA/	in	8A/	in	8a\	in	8cc\	in	1ryy	1ryy
8BB/	.	.	8BB/	.	.	.	8dd\	.	8BB/	de-	16G/LL	de-	8a\	de-	8dd\	de-	.	.
.	.	.	.	.	.	.	.	.	.	.	16F/JJ	.	.	.	.	.	.	.
!	!	!	!	!	!	!	!LO:SIC:s=8ee)	!	!	!	!	!	!	!	!	!	!	!
8C/	6	.	8C/	.	.	.	8ee\	.	16C/	-li-	16E/	-li-	16a\	-li-	8ee\	-li-	.	.
!	!	!	!	!	!	!	!	!	!	!LO:MO:mod=-ci-	!	!LO:MO:mod=-ci-	!	!LO:MO:mod=-ci-	!	!	!	!
.	.	.	.	.	.	.	.	.	16C/	-cj-	16E/	-cj-	16a\	-cj-	.	.	.	.
!	!	!	!	!	!	!	!LO:SIC:s=8aa|J	!	!	!	!	!	!	!	!	!	!	!
8D/J	.	.	8D/J	.	16ff\LL	.	8aa|\J)	.	8D/	-is	8A/	-is	8a\	-is	16ff\	-ci-	.	.
!	!	!	!	!	!	!	!	!	!	!	!	!	!	!	!	!LO:MO:mod=-is	!	!
.	.	.	.	.	16dd\JJ	.	.	.	.	.	.	.	.	.	16ff\	-js	.	.
!	!	!	!	!	!	!	!	!	!	!	!	!	!	!	!LO:LB:g=original	!	!	!
!	!	!	!	!	!	!	!	!	!	!	!	!	!	!	!LO:SIC:s=(4cc	!	!	!
8E\L	6 4	.	8E\L	.	4cc\	.	4aa\	.	2E\	me-	2e\	me-	(4a\	me-	4cc\	me-	.	.
8D\	.	.	8D\	.	.	.	.	.	.	.	.	.	.	.	.	.	.	.
!	!	!	!	!	!	!	!	!	!	!	!	!	!	!	!LO:SIC:s=4bt)	!	!	!
8E\	5 #	.	8E\	.	4bt\	.	4gg#X\	.	.	.	.	.	4g#Xt\)	.	4bt\	.	.	.
!LO:TX:t=P:problem=mixed beam	!	!	!LO:TX:t=P:problem=mixed beam	!	!	!	!	!	!	!	!	!	!	!	!	!	!	!
8EE/J	.	.	8EE/J	.	.	.	.	.	.	.	.	.	.	.	.	.	.	.
!	!	!	!	!	!	!	!LO:LB:g=original	!	!	!	!	!	!	!	!	!	!	!
=28	=28	=28	=28	=28	=28	=28	=28	=28	=28	=28	=28	=28	=28	=28	=28	=28	=28	=28
!	!	!	!LO:TX:a:i:t=Solo.:mod=	!	!	!	!	!	!	!LO:MO:mod=-is	!	!LO:MO:mod=-is	!	!LO:MO:mod=-is	!	!	!	!
8AA/L	.	.	8AA/L	.	4a/	.	4aa\	.	4AA/	-is.	4e\	-is.	4a\	-is.	4a\	-is	1ryy	1ryy
!LO:TX:b:t=Solo.:mod=	!	!	!	!	!	!	!	!	!	!	!	!	!	!	!	!	!	!
!LO:TX:t=P:problem=mixed beam	!	!	!LO:TX:t=P:problem=mixed beam	!	!	!	!	!	!	!	!	!	!	!	!	!	!	!
8A\J	.	.	8A\J	.	.	.	.	.	.	.	.	.	.	.	.	.	.	.
!	!	!	!	!	!LO:SIC:s=(16cccLL	!	!LO:SIC:s=(16cccLL	!	!	!	!	!	!	!	!	!	!	!
8r	.	.	8r	.	16ccc\LL	.	16ccc\LL	.	4r	.	4r	.	4r	.	4r	.	.	.
!	!	!	!	!	!LO:SIC:s=16bb)	!	!LO:SIC:s=16bb)	!	!	!	!	!	!	!	!	!	!	!
.	.	.	.	.	[16bb\	.	[16bb\	.	.	.	.	.	.	.	.	.	.	.
!	!	!	!	!	!LO:SIC:s=(16bb	!	!LO:SIC:s=(16bb	!	!	!	!	!	!	!	!	!	!	!
8A\	.	.	8A\	.	(16bb\]	.	(16bb\]	.	.	.	.	.	.	.	.	.	.	.
.	.	.	.	.	16dd#X\JJ)	.	16dd#X\JJ)	.	.	.	.	.	.	.	.	.	.	.
8G\L	6	.	8G\L	.	8.eet\L	.	8.eet\L	.	2r	.	2r	.	2r	.	2r	.	.	.
8E\J	.	.	8E\J	.	.	.	.	.	.	.	.	.	.	.	.	.	.	.
.	.	.	.	.	(32dd#X\LL	.	(32dd#X\LL	.	.	.	.	.	.	.	.	.	.	.
.	.	.	.	.	32ee\JJJ)	.	32ee\JJJ)	.	.	.	.	.	.	.	.	.	.	.
8r	.	.	8r	.	(16aa\LL	.	(16aa\LL	.	.	.	.	.	.	.	.	.	.	.
.	.	.	.	.	16gg\)	.	16gg\)	.	.	.	.	.	.	.	.	.	.	.
8F\	.	.	8F\	.	(16gg\	.	(16gg\	.	.	.	.	.	.	.	.	.	.	.
.	.	.	.	.	16b\JJ)	.	16b\JJ)	.	.	.	.	.	.	.	.	.	.	.
!	!	!	!	!	!	!	!	!	!	!	!LO:LB:g=original	!	!	!	!	!	!	!
=29	=29	=29	=29	=29	=29	=29	=29	=29	=29	=29	=29	=29	=29	=29	=29	=29	=29	=29
!	!	!	!	!	!	!	!	!	!LO:TX:a:t=4.:mod=	!	!LO:TX:a:t=1.:mod=	!	!LO:TX:a:t=5.:mod=	!	!LO:TX:a:t=1.:mod=	!	!	!
8E\L	6	.	8E\L	.	(8.ccT\L	.	(8.ccT\L	.	00r	.	1r	.	00r	.	1r	.	1ryy	1ryy
8C\J	.	.	8C\J	.	.	.	.	.	.	.	.	.	.	.	.	.	.	.
.	.	.	.	.	32b\LL	.	32b\LL	.	.	.	.	.	.	.	.	.	.	.
.	.	.	.	.	32cc\JJJ)	.	32cc\JJJ)	.	.	.	.	.	.	.	.	.	.	.
8r	.	.	8r	.	(16ff\LL	.	(16ff\LL	.	.	.	.	.	.	.	.	.	.	.
.	.	.	.	.	16ee\)	.	16ee\)	.	.	.	.	.	.	.	.	.	.	.
8D\	.	.	8D\	.	(16ee\	.	(16ee\	.	.	.	.	.	.	.	.	.	.	.
!	!	!	!	!	!	!	!LO:TX:t=P:problem=mixed beam	!	!	!	!	!	!	!	!	!	!	!
.	.	.	.	.	16g#X\JJ)	.	16g#X/JJ)	.	.	.	.	.	.	.	.	.	.	.
8C\L	6	.	8C\L	.	8.a/L	.	8.a/L	.	.	.	.	.	.	.	.	.	.	.
8F\	.	.	8F\	.	.	.	.	.	.	.	.	.	.	.	.	.	.	.
.	.	.	.	.	16b/Jk	.	16b/Jk	.	.	.	.	.	.	.	.	.	.	.
8D\	6 5	.	8D\	.	4bt/	.	4bt/	.	.	.	.	.	.	.	.	.	.	.
8E\J	#	.	8E\J	.	.	.	.	.	.	.	.	.	.	.	.	.	.	.
=30	=30	=30	=30	=30	=30	=30	=30	=30	=30	=30	=30	=30	=30	=30	=30	=30	=30	=30
8.AA/L	.	.	8.AA/L	.	4a/	.	4a/	.	.	.	8r	.	.	.	2r	.	1ryy	1ryy
.	.	.	.	.	.	.	.	.	.	.	16A/	qui-	.	.	.	.	.	.
16AA/K	.	.	16AA/K	.	.	.	.	.	.	.	16A/	-a	.	.	.	.	.	.
8.C/	6	.	8.C/	.	4r	.	4r	.	.	.	16A/	te-	.	.	.	.	.	.
.	.	.	.	.	.	.	.	.	.	.	16A/	-ne-	.	.	.	.	.	.
.	.	.	.	.	.	.	.	.	.	.	8A/	-brae	.	.	.	.	.	.
16AA/Jk	.	.	16AA/Jk	.	.	.	.	.	.	.	.	.	.	.	.	.	.	.
!	!	!	!LO:LB:g=original	!	!	!	!	!	!	!	!	!	!	!	!	!	!	!
8.E\L	4	.	8.E\L	.	2r	.	2r	.	.	.	16A/	non	.	.	8b\	et	.	.
.	.	.	.	.	.	.	.	.	.	.	16A/	ob-	.	.	.	.	.	.
.	.	.	.	.	.	.	.	.	.	.	16A/	-scu-	.	.	8b\	nox	.	.
16E\K	.	.	16E\K	.	.	.	.	.	.	.	16A/	-ra-	.	.	.	.	.	.
8.G#X\	6	.	8.G#X\	.	.	.	.	.	.	.	8G#X/	-bun-	.	.	16b\	si-	.	.
.	.	.	.	.	.	.	.	.	.	.	.	.	.	.	16b\	-cut	.	.
.	.	.	.	.	.	.	.	.	.	.	16G#/	-tur	.	.	16b\	di-	.	.
16E\Jk	.	.	16E\Jk	.	.	.	.	.	.	.	16G#/	a	.	.	16b\	-es	.	.
!LO:LB:g=original	!	!	!	!	!	!	!	!	!	!	!	!	!	!	!	!	!	!
=31	=31	=31	=31	=31	=31	=31	=31	=31	=31	=31	=31	=31	=31	=31	=31	=31	=31	=31
!LO:TX:t=P:problem=mixed beam	!	!	!LO:TX:t=P:problem=mixed beam	!	!LO:TX:a:t=6.:mod=	!	!LO:TX:a:t=6.:mod=	!	!	!	!	!	!	!	!	!	!	!
8.AA/L	9	.	8.AA/L	.	00r	.	00r	.	.	.	4c\	te	.	.	4b\	il-	1ryy	1ryy
16A\K	.	.	16A\K	.	.	.	.	.	.	.	.	.	.	.	.	.	.	.
8.c\	6	.	8.c\	.	.	.	.	.	.	.	8c\	si-	.	.	8a\	-lu-	.	.
.	.	.	.	.	.	.	.	.	.	.	8c\	-cut	.	.	8a\	-mi-	.	.
16A\Jk	.	.	16A\Jk	.	.	.	.	.	.	.	.	.	.	.	.	.	.	.
8.Gn\L	5 4	.	8.Gn\L	.	.	.	.	.	.	.	16c\	te-	.	.	8.dd\	-na-	.	.
.	.	.	.	.	.	.	.	.	.	.	16c\	-ne-	.	.	.	.	.	.
.	.	.	.	.	.	.	.	.	.	.	8c\	-brae	.	.	.	.	.	.
16G\K	.	.	16G\K	.	.	.	.	.	.	.	.	.	.	.	16dd\	-bi-	.	.
8.B\	6	.	8.B\	.	.	.	.	.	.	.	8c\	e-	.	.	4dd\	-tur	.	.
.	.	.	.	.	.	.	.	.	.	.	8c\	-jus	.	.	.	.	.	.
16G\Jk	.	.	16G\Jk	.	.	.	.	.	.	.	.	.	.	.	.	.	.	.
=32	=32	=32	=32	=32	=32	=32	=32	=32	=32	=32	=32	=32	=32	=32	=32	=32	=32	=32
8.C\L	9	.	8.C/L	.	.	.	.	.	.	.	4e\	i-	.	.	4dd\	i-	1ryy	1ryy
16C\K	.	.	16C/K	.	.	.	.	.	.	.	.	.	.	.	.	.	.	.
8.E\	6	.	8.E/	.	.	.	.	.	.	.	8e\	-ta	.	.	8cc\	-ta	.	.
.	.	.	.	.	.	.	.	.	.	.	8e\	et	.	.	8cc\	et	.	.
16C\Jk	.	.	16C/Jk	.	.	.	.	.	.	.	.	.	.	.	.	.	.	.
8.D\L	9	.	8.D/L	.	.	.	.	.	.	.	4e\	lu-	.	.	4ff\	lu-	.	.
16D\K	.	.	16D/K	.	.	.	.	.	.	.	.	.	.	.	.	.	.	.
8.F\	6	.	8.F/	.	.	.	.	.	.	.	4d\	-men	.	.	4ff\	-men	.	.
16D\Jk	.	.	16D/Jk	.	.	.	.	.	.	.	.	.	.	.	.	.	.	.
=33	=33	=33	=33	=33	=33	=33	=33	=33	=33	=33	=33	=33	=33	=33	=33	=33	=33	=33
*	*	*	*	*	*	*	*	*	*	*	*	*ij	*	*	*	*	*	*
!	!	!	!	!	!	!	!	!	!	!	!	!	!	!	!LO:SIC:s=(4ee	!	!	!
8A\L	.	.	8A\L	.	.	.	.	.	2r	.	8c\	lu-	1r	.	4ee\	e-	1ryy	1ryy
8G\J	6.	.	8G\J	.	.	.	.	.	.	.	8B\	-men	.	.	.	.	.	.
*	*	*	*	*	*	*	*	*	*	*	*	*Xij	*	*	*	*	*	*
!	!	!	!	!	!	!	!	!	!	!	!	!	!	!	!LO:SIC:s=4ddT)	!	!	!
4F\	6	.	4F\	.	.	.	.	.	.	.	4A/	e-	.	.	4ddT\	.	.	.
!	!	!	!	!	!	!	!	!	!	!	!	!	!	!	!LO:LB:g=original	!	!	!
8.E\L	#	.	8.E\L	.	.	.	.	.	16E\	qui-	4G#X/	-jus	.	.	4ee\	-jus.	.	.
.	.	.	.	.	.	.	.	.	16E\	-a	.	.	.	.	.	.	.	.
.	.	.	.	.	.	.	.	.	8E\	tu	.	.	.	.	.	.	.	.
16E\K	.	.	16E\K	.	.	.	.	.	.	.	.	.	.	.	.	.	.	.
8.Gn\	6	.	8.Gn\	.	.	.	.	.	8E\	poſ-	4r	.	.	.	4r	.	.	.
.	.	.	.	.	.	.	.	.	8E\	-se-	.	.	.	.	.	.	.	.
16E\Jk	.	.	16E\Jk	.	.	.	.	.	.	.	.	.	.	.	.	.	.	.
!	!	!	!	!	!	!	!	!	!	!	!LO:LB:g=original	!	!	!	!	!	!	!
=34	=34	=34	=34	=34	=34	=34	=34	=34	=34	=34	=34	=34	=34	=34	=34	=34	=34	=34
!	!	!	!	!	!	!	!	!	!	!	!LO:TX:a:t=2.:mod=	!	!	!LO:MO:mod=con-	!LO:TX:a:t=3.:mod=	!	!	!
8.BB/L	5 4	.	8.BB/L	.	.	.	.	.	4E\	-dis-	0r	.	8.f#X\	Con-	0r	.	1ryy	1ryy
16BB/K	.	.	16BB/K	.	.	.	.	.	.	.	.	.	16f#\	-fi-	.	.	.	.
8.D#X/	6	.	8.D#X/	.	.	.	.	.	4D#X/	-ti	.	.	16f#\	-te-	.	.	.	.
.	.	.	.	.	.	.	.	.	.	.	.	.	16f#\	-bor	.	.	.	.
.	.	.	.	.	.	.	.	.	.	.	.	.	16f#\	ti-	.	.	.	.
16BB/Jk	.	.	16BB/Jk	.	.	.	.	.	.	.	.	.	16f#\	-bi	.	.	.	.
!	!	!	!	!	!	!	!	!	!LO:LB:g=original	!	!	!	!	!	!	!	!	!
8.E\L	9	.	8.E\L	.	.	.	.	.	4.G\	re-	.	.	16f#\	qui-	.	.	.	.
.	.	.	.	.	.	.	.	.	.	.	.	.	16f#\	-a	.	.	.	.
.	.	.	.	.	.	.	.	.	.	.	.	.	16f#\	ter-	.	.	.	.
16E\K	.	.	16E\K	.	.	.	.	.	.	.	.	.	16f#\	-ri-	.	.	.	.
8.G\	6	.	8.G\	.	.	.	.	.	.	.	.	.	16e\	-bi-	.	.	.	.
.	.	.	.	.	.	.	.	.	.	.	.	.	16e\	-li-	.	.	.	.
.	.	.	.	.	.	.	.	.	8G\	-nes	.	.	8e\	-ter	.	.	.	.
16E\Jk	.	.	16E\Jk	.	.	.	.	.	.	.	.	.	.	.	.	.	.	.
=35	=35	=35	=35	=35	=35	=35	=35	=35	=35	=35	=35	=35	=35	=35	=35	=35	=35	=35
8.Dn\L	5 4	.	8.Dn\L	.	0r	.	0r	.	4G\	me-	.	.	8a\	ma-	.	.	1ryy	1ryy
.	.	.	.	.	.	.	.	.	.	.	.	.	16a\	-gni-	.	.	.	.
16D\K	.	.	16D\K	.	.	.	.	.	.	.	.	.	16a\	-fi-	.	.	.	.
8.F#X\	6	.	8.F#X\	.	.	.	.	.	4F#X\	-os	.	.	8.a\	-ca-	.	.	.	.
16D\Jk	.	.	16D\Jk	.	.	.	.	.	.	.	.	.	16a\	-tus	.	.	.	.
!LO:LB:g=original	!	!	!	!	!	!	!	!	!	!	!	!	!	!	!	!	!	!
8.GG/L	9	.	8.GG/L	.	.	.	.	.	8.B\	sus-	.	.	8a\	est	.	.	.	.
.	.	.	.	.	.	.	.	.	.	.	.	.	16g\	mi-	.	.	.	.
16GG/K	.	.	16GG/K	.	.	.	.	.	16B\	-ce-	.	.	16g\	-ra-	.	.	.	.
8.BB/	6	.	8.BB/	.	.	.	.	.	16B\	-pi-	.	.	16g\	-bi-	.	.	.	.
.	.	.	.	.	.	.	.	.	16B\	-sti	.	.	16g\	-li-	.	.	.	.
.	.	.	.	.	.	.	.	.	8B\	me	.	.	8g\	-a	.	.	.	.
16GG/Jk	.	.	16GG/Jk	.	.	.	.	.	.	.	.	.	.	.	.	.	.	.
=36	=36	=36	=36	=36	=36	=36	=36	=36	=36	=36	=36	=36	=36	=36	=36	=36	=36	=36
8.AA/L	9	.	8.AA/L	.	.	.	.	.	4B\	de	16e\	et	8cc\	o-	1r	.	1ryy	1ryy
.	.	.	.	.	.	.	.	.	.	.	16e\	a-	.	.	.	.	.	.
.	.	.	.	.	.	.	.	.	.	.	16e\	-ni-	16cc\	-pe-	.	.	.	.
16AA/K	.	.	16AA/K	.	.	.	.	.	.	.	16e\	-ma	16cc\	-ra	.	.	.	.
8.C/	6	.	8.C/	.	.	.	.	.	16A\	u-	16e\	me-	8cc\	tu-	.	.	.	.
.	.	.	.	.	.	.	.	.	16A\	-te-	16e\	-a	.	.	.	.	.	.
.	.	.	.	.	.	.	.	.	8A\	-ro	8e\	cog-	16cc\	-a	.	.	.	.
16AA/Jk	.	.	16AA/Jk	.	.	.	.	.	.	.	.	.	16cc\	cog-	.	.	.	.
8E\L	.	.	8E\L	.	.	.	.	.	8G\	ma-	8e\	-nos-	8b\	-nos-	.	.	.	.
8D\J	6 #	.	8D\J	.	.	.	.	.	8F#X\	-tris	8B\	-cit	8b\	-cit	.	.	.	.
4C/	6	.	4C/	.	.	.	.	.	4E\	me-	4c\	ni-	4a\	ni-	.	.	.	.
=37	=37	=37	=37	=37	=37	=37	=37	=37	=37	=37	=37	=37	=37	=37	=37	=37	=37	=37
4BB/	#	.	4BB/	.	4r	.	4r	.	4D#X/	-ae	4F#X/	-mis	4b\	-mis	4r	.	1ryy	1ryy
8r	.	.	8r	.	(16aa\LL	.	(16aa\LL	.	8r	.	8r	.	8r	.	8r	.	.	.
.	.	.	.	.	16cc\)	.	16cc\)	.	.	.	.	.	.	.	.	.	.	.
!LO:TX:b:i:t=tutti.:mod=	!	!	!LO:TX:i:b:t=Tutti:mod=	!	!	!	!	!	!	!	!	!	!	!	!	!	!	!
8A\	.	.	8A\	.	(16cc\	.	(16cc\	.	8A\	non	8A/	non	8e\	non	8cc\	non	.	.
.	.	.	.	.	16dd#X\JJ)	.	16dd#X\JJ)	.	.	.	.	.	.	.	.	.	.	.
!	!	!	!LO:LB:g=original	!	!	!	!	!	!	!	!	!	!	!	!	!	!	!
*	*	*	*	*	*	*	*	*	*	*ij	*	*	*	*	*	*ij	*	*
8G\L	6	.	8G\L	.	8.eet\L	.	8.eet\L	.	8G\	non	4B\	est	4e\	est	8b\	non	.	.
*	*	*	*	*	*	*	*	*	*	*Xij	*	*	*	*	*	*Xij	*	*
8E\J	.	.	8F\J	.	.	.	.	.	8E\	est	.	.	.	.	8g/	est	.	.
.	.	.	.	.	(32dd#X\LL	.	(32dd#X\LL	.	.	.	.	.	.	.	.	.	.	.
.	.	.	.	.	32ee\JJJ)	.	32ee\JJJ)	.	.	.	.	.	.	.	.	.	.	.
!	!	!	!	!	!LO:LB:g=original	!	!	!	!	!	!	!	!	!	!	!	!	!
8r	.	.	8r	.	(16aa\LL	.	(16aa\LL	.	8r	.	8r	.	8r	.	8r	.	.	.
.	.	.	.	.	16cc\)	.	16cc\)	.	.	.	.	.	.	.	.	.	.	.
8A\	.	.	8A\	.	(16cc\	.	(16cc\	.	16A\	oc-	16A/	oc-	16e\	oc-	16cc\	oc-	.	.
.	.	.	.	.	16dd#X\JJ)	.	16dd#X\JJ)	.	16A\	-cul-	16A/	-cul-	16e\	-cul-	16cc\	-cul-	.	.
!	!	!	!	!	!	!	!	!	!	!	!	!	!LO:LB:g=original	!	!	!	!	!
=38	=38	=38	=38	=38	=38	=38	=38	=38	=38	=38	=38	=38	=38	=38	=38	=38	=38	=38
8G\L	6	.	8G\L	.	8.eet\L	.	8.eet\L	.	8G\	-ta-	8B\	-ta-	8e\	-ta-	8b\	-ta-	1ryy	1ryy
8E\J	.	.	8E\J	.	.	.	.	.	8E\	-tum	8B\	-tum	8e\	-tum	8g/	-tum	.	.
.	.	.	.	.	(32dd#X\LL	.	(32dd#X\LL	.	.	.	.	.	.	.	.	.	.	.
.	.	.	.	.	32ee\JJJ)	.	32ee\JJJ)	.	.	.	.	.	.	.	.	.	.	.
8r	.	.	8r	.	(16dddn\LL	.	(16dddn\LL	.	8r	.	8r	.	8r	.	8r	.	.	.
.	.	.	.	.	16ff\)	.	16ff\)	.	.	.	.	.	.	.	.	.	.	.
8d\	.	.	8d\	.	(16ff\	.	(16ff\	.	8d\	os	8d\	os	8f\	os	8a\	os	.	.
.	.	.	.	.	16gg#X\JJ)	.	16gg#X\JJ)	.	.	.	.	.	.	.	.	.	.	.
!	!	!	!	!	!	!	!LO:LB:g=original	!	!LO:LB:g=original	!	!	!	!	!	!	!	!	!
8c\L	6	.	8c\L	.	8.aaT\L	.	8.aaT\L	.	8c\	me-	8e\	me-	8e\	me-	8a\	me-	.	.
8A\J	.	.	8A\J	.	.	.	.	.	8A\	-um	8e\	-um	8c/	-um	8a\	-um	.	.
.	.	.	.	.	(32gg#X\LL	.	(32gg#X\LL	.	.	.	.	.	.	.	.	.	.	.
.	.	.	.	.	32aa\JJJ)	.	32aa\JJJ)	.	.	.	.	.	.	.	.	.	.	.
8r	.	.	8r	.	(16ddd\LL	.	(16ddd\LL	.	8r	.	8r	.	8f\	im-	8r	.	.	.
.	.	.	.	.	16ff\)	.	16ff\)	.	.	.	.	.	.	.	.	.	.	.
8d\	.	.	8d\	.	(16ff\	.	(16ff\	.	8d\	os	8d\	os	8f\	-per-	8a\	a	.	.
.	.	.	.	.	16gg#X\JJ)	.	16gg#X\JJ)	.	.	.	.	.	.	.	.	.	.	.
=39	=39	=39	=39	=39	=39	=39	=39	=39	=39	=39	=39	=39	=39	=39	=39	=39	=39	=39
8c\L	6	.	8c\L	.	8.aaT\L	.	8.aaT\L	.	8c\	me-	8e\	me-	8e\	-fe-	4a\	te	1ryy	1ryy
8A\J	.	.	8A\J	.	.	.	.	.	8A\	-um	8e\	-um	8c/	-ctum	.	.	.	.
.	.	.	.	.	(32gg#X\LL	.	(32gg#X\LL	.	.	.	.	.	.	.	.	.	.	.
.	.	.	.	.	32aa\JJJ)	.	32aa\JJJ)	.	.	.	.	.	.	.	.	.	.	.
8r	.	.	8r	.	(16ggn\LL	.	(16ggn\LL	.	8r	.	8G/	di-	8d\	me-	8r	.	.	.
.	.	.	.	.	16b\)	.	16b\)	.	.	.	.	.	.	.	.	.	.	.
!	!	!	!	!	!	!	!	!	!	!	!	!	!	!	!	!LO:MO:mod=quod	!	!
8G\	.	.	8G\	.	(16b\	.	(16b\	.	8G\	vi-	8G/	-es	16d\	-um	16b\	qui	.	.
.	.	.	.	.	16cc#X\JJ)	.	16cc#X\JJ)	.	.	.	.	.	16d\	vi-	16b\	fe-	.	.
!	!	!	!	!	!	!	!	!	!	!	!LO:LB:g=original	!	!	!	!	!	!	!
8F#X\L	6	.	8F#X\L	.	8.ddT\L	.	8.ddT\L	.	8F#X\	-de-	8A\	for-	8d\	-de-	8a\	-cis-	.	.
8D\J	.	.	8D\J	.	.	.	.	.	8D\	-runt	8A\	-ma-	8d\	-runt	8f#X/	-ti	.	.
.	.	.	.	.	(32cc#X\LL	.	(32cc#X\LL	.	.	.	.	.	.	.	.	.	.	.
.	.	.	.	.	32dd\JJJ)	.	32dd\JJJ)	.	.	.	.	.	.	.	.	.	.	.
8r	.	.	8r	.	(16gg\LL	.	(16gg\LL	.	8r	.	4G/	-bun-	16d\	o-	8r	.	.	.
.	.	.	.	.	16b\)	.	16b\)	.	.	.	.	.	16d\	-cu-	.	.	.	.
8G\	.	.	8G\	.	(16b\	.	(16b\	.	16G\	et	.	.	8d\	-li	16b\	in	.	.
.	.	.	.	.	16cc#X\JJ)	.	16cc#X\JJ)	.	16G\	in	.	.	.	.	16b\	oc-	.	.
!LO:LB:g=original	!	!	!	!	!	!	!	!	!	!	!	!	!	!	!LO:LB:g=original	!	!	!
=40	=40	=40	=40	=40	=40	=40	=40	=40	=40	=40	=40	=40	=40	=40	=40	=40	=40	=40
8F#X\L	6	.	8F#X\L	.	8.ddT\L	.	8.ddT\L	.	8F#X\	li-	4A/	-tur	8d\	tu-	8a\	-cul-	1ryy	1ryy
8D\J	.	.	8D\J	.	.	.	.	.	8D\	-bro	.	.	8d\	-i	8f#X/	-to	.	.
.	.	.	.	.	(32cc#X\LL	.	(32cc#X\LL	.	.	.	.	.	.	.	.	.	.	.
.	.	.	.	.	32dd\JJJ)	.	32dd\JJJ)	.	.	.	.	.	.	.	.	.	.	.
8r	.	.	8r	.	(16cccn\LL	.	(16cccn\LL	.	8r	.	8c\	di-	16e\	et	8g/	et	.	.
.	.	.	.	.	16ee\)	.	16ee\)	.	.	.	.	.	16e\	in	.	.	.	.
8c\	.	.	8c\	.	(16ee\	.	(16ee\	.	8c\	scri-	8c\	-es	16e\	li-	8g/	sub-	.	.
!	!	!	!	!	!	!	!	!	!	!	!	!	!LO:SIC:v:t=custos d	!	!	!	!	!
.	.	.	.	.	16ff#X\JJ)	.	16ff#X\JJ)	.	.	.	.	.	16e\	-bro	.	.	.	.
!	!	!	!	!	!	!	!	!	!	!	!	!	!LO:LB:g=original	!	!	!	!	!
8B\L	6	.	8B\L	.	8.ggT\L	.	8.ggT\L	.	8B\	-ben-	8d\	for-	8d\	tu-	8.g/	-stan-	.	.
8G\J	.	.	8G\J	.	.	.	.	.	8G\	-tur	8d\	-ma-	8B/	-o	.	.	.	.
.	.	.	.	.	(32ff#X\LL	.	(32ff#X\LL	.	.	.	.	.	.	.	16g/	-ti-	.	.
.	.	.	.	.	32gg\JJJ)	.	32gg\JJJ)	.	.	.	.	.	.	.	.	.	.	.
8r	.	.	8r	.	(16ccc\LL	.	(16ccc\LL	.	8r	.	4c\	-bun-	8e\	om-	8g/	-a	.	.
.	.	.	.	.	16ee\)	.	16ee\)	.	.	.	.	.	.	.	.	.	.	.
8c\	.	.	8c\	.	(16ee\	.	(16ee\	.	16c\	for-	.	.	16e\	-nes	16g/	me-	.	.
.	.	.	.	.	16ff#X\JJ)	.	16ff#X\JJ)	.	16c\	-ma-	.	.	16e\	scri-	16g/	-a	.	.
!	!	!	!	!	!LO:LB:g=original	!	!	!	!	!	!	!	!	!	!	!	!	!
=41	=41	=41	=41	=41	=41	=41	=41	=41	=41	=41	=41	=41	=41	=41	=41	=41	=41	=41
8B\L	6	.	8B\L	.	8.ggT\L	.	8.ggT\L	.	8B\	-bun-	4d\	-tur	8d\	-ben-	16g/	in	1ryy	1ryy
.	.	.	.	.	.	.	.	.	.	.	.	.	.	.	16g/	in-	.	.
8G\J	.	.	8G\J	.	.	.	.	.	8G\	-tur	.	.	8B/	-tur	16g/	-fe-	.	.
.	.	.	.	.	(32ff#X\LL	.	(32ff#X\LL	.	.	.	.	.	.	.	16g/	-ri-	.	.
.	.	.	.	.	32gg\JJJ)	.	32gg\JJJ)	.	.	.	.	.	.	.	.	.	.	.
8r	.	.	8r	.	(16gg\LL	.	(16gg\LL	.	8r	.	8r	.	8r	.	16b\	-o-	.	.
.	.	.	.	.	16b\)	.	16b\)	.	.	.	.	.	.	.	16b\	-ri-	.	.
*	*	*	*	*	*	*	*	*	*	*	*	*	*	*ij	*	*	*	*
!	!	!	!	!	!	!	!	!	!LO:SIC:v:t=custos F#	!	!	!	!	!	!	!	!	!
8G\	.	.	8G\	.	(16b\	.	(16b\	.	8G\	et	8G/	et	8d\	scri-	8b\	-bus	.	.
.	.	.	.	.	16cc#X\JJ)	.	16cc#X\JJ)	.	.	.	.	.	.	.	.	.	.	.
8F#X\L	6	.	8F#X\L	.	(16dd\LL	.	(16dd\LL	.	8F#X\	ne-	8A/	ne-	8d\	-ben-	8a\	ter-	.	.
.	.	.	.	.	16a\)	.	16a\)	.	.	.	.	.	.	.	.	.	.	.
8D\J	.	.	8D\J	.	(16a\	.	(16a\	.	8D\	-mo	8A/	-mo	8d\	-tur	8f#X/	-rae	.	.
*	*	*	*	*	*	*	*	*	*	*	*	*	*	*Xij	*	*	*	*
.	.	.	.	.	16b\JJ)	.	16b\JJ)	.	.	.	.	.	.	.	.	.	.	.
8r	.	.	8r	.	(>16cc#\LL	.	(>16cc#\LL	.	8r	.	8r	.	8r	.	8r	.	.	.
!	!	!	!	!	!LO:TX:t=P:problem=mixed beam	!	!	!	!	!	!	!	!	!	!	!	!	!
.	.	.	.	.	16e/)	.	16e/)	.	.	.	.	.	.	.	.	.	.	.
!	!	!	!	!	!	!	!	!	!	!	!	!	!	!	!LO:SIC:s=(8ee	!	!	!
8c\	.	.	8c\	.	(16e/	.	(16e/	.	8c\	in	8c\	in	8g\	scri-	8ee\	ter-	.	.
.	.	.	.	.	16f#X/JJ)	.	16f#X/JJ)	.	.	.	.	.	.	.	.	.	.	.
!	!	!	!	!	!	!	!LO:LB:g=original	!	!	!	!	!	!	!	!	!	!	!
=42	=42	=42	=42	=42	=42	=42	=42	=42	=42	=42	=42	=42	=42	=42	=42	=42	=42	=42
!	!	!	!	!	!	!	!	!	!LO:SIC:s=8BL	!	!LO:SIC:s=(8dL	!	!	!	!LO:SIC:s=2dd)	!	!	!
8B\L	6	.	8B\L	.	8.g/L	.	8.g/L	.	8B\	e-	8d\L	e-	(4g\	-ben-	2dd\	.	1ryy	1ryy
!	!	!	!	!	!	!	!	!	!LO:SIC:s=8GJ	!	!	!	!	!	!	!	!	!
8G\	.	.	8G\	.	.	.	.	.	8G\	.	8B\J	.	.	.	.	.	.	.
.	.	.	.	.	16a/Jk	.	16a/Jk	.	.	.	.	.	.	.	.	.	.	.
!	!	!	!	!	!	!	!	!	!LO:TX:t=P:problem=mixed beam	!	!LO:SIC:s=4A)	!	!	!	!	!	!	!
8d\	4	.	8d\	.	4aT/	.	4aT/	.	8d\L	.	4A/	.	4f#Xt\)	.	.	.	.	.
8D\J	#3	.	8D\J	.	.	.	.	.	8D/J	.	.	.	.	.	.	.	.	.
!	!	!	!	!	!	!	!	!	!	!	!	!	!	!LO:MO:mod=-tur	!	!	!	!
8.G\L	.	.	8.G\L	.	4g/	.	4g/	.	4G\	-is	8B\	-is	4g\	-tur.	8dd\	-rae	.	.
.	.	.	.	.	.	.	.	.	.	.	16G/	mi-	.	.	8r	.	.	.
16GG/K	.	.	16GG/K	.	.	.	.	.	.	.	16G/	-hi	.	.	.	.	.	.
8.BB/	6	.	8.BB/	.	4r	.	[4gg\	.	4r	.	8G/	au-	4r	.	4r	.	.	.
.	.	.	.	.	.	.	.	.	.	.	8G/	-tem	.	.	.	.	.	.
16GG/Jk	.	.	16GG/Jk	.	.	.	.	.	.	.	.	.	.	.	.	.	.	.
=43	=43	=43	=43	=43	=43	=43	=43	=43	=43	=43	=43	=43	=43	=43	=43	=43	=43	=43
!	!	!	!	!	!LO:MO:mod=2.a	!	!	!	!	!	!	!	!	!	!	!	!	!
8.D\L	5 4	.	8.D/L	.	[2a/	.	4gg\]	.	2r	.	4G/	ni-	16r	.	8a\	ni-	1ryy	1ryy
!	!	!	!	!	!	!	!	!	!	!	!	!	!	!LO:MO:mod=di-	!	!	!	!
.	.	.	.	.	.	.	.	.	.	.	.	.	16d\	Di-	.	.	.	.
.	.	.	.	.	.	.	.	.	.	.	.	.	16d\	-nu-	8a\	-mis	.	.
16D\K	.	.	16D/K	.	.	.	.	.	.	.	.	.	16d\	-me-	.	.	.	.
8.F#X\	6	.	8.F#X/	.	.	.	4ff#X\	.	.	.	4F#X/	-mis	8d\	-ra-	8a\	con-	.	.
.	.	.	.	.	.	.	.	.	.	.	.	.	8d\	-bo	8a\	-for-	.	.
16D\Jk	.	.	16D/Jk	.	.	.	.	.	.	.	.	.	.	.	.	.	.	.
!	!	!	!	!	!LO:MO:mod=.	!	!	!	!	!	!	!	!	!	!LO:LB:g=original	!	!	!
8.GG/L	9	.	8.GG/L	.	4a/]	.	[2bb\	.	4.GG/	ex-	8B\	ho-	4d\	e-	8.a\	-ta-	.	.
.	.	.	.	.	.	.	.	.	.	.	8B\	-no-	.	.	.	.	.	.
16GG/K	.	.	16GG/K	.	.	.	.	.	.	.	.	.	.	.	16g/	-tus	.	.
8.BB/	6	.	8.BB/	.	4g/	.	.	.	.	.	8B\	-ri-	8d\	-os	8g/	est	.	.
!	!	!	!	!	!	!	!	!	!	!LO:MO:mod=-sur-	!	!	!	!	!	!	!	!
.	.	.	.	.	.	.	.	.	8GG/	-ur-	8B\	-fi-	8g\	et	16g/	prin-	.	.
16GG/Jk	.	.	16GG/Jk	.	.	.	.	.	.	.	.	.	.	.	16g/	-ci-	.	.
!	!	!	!LO:LB:g=original	!	!	!	!	!	!	!	!	!	!LO:LB:g=original	!	!	!	!	!
=44	=44	=44	=44	=44	=44	=44	=44	=44	=44	=44	=44	=44	=44	=44	=44	=44	=44	=44
!	!	!	!	!	!LO:MO:mod=2.cc	!	!	!	!	!	!	!	!	!	!	!	!	!
8.AA/L	9	.	8.AA/L	.	[2cc\	.	4bb\]	.	4AA/	-re-	8.B\	-ca-	8d\	su-	4cc\	-pa-	1ryy	1ryy
.	.	.	.	.	.	.	.	.	.	.	.	.	16e\	-per	.	.	.	.
16AA/K	.	.	16AA/K	.	.	.	.	.	.	.	16A\	-ti	16e\	-a-	.	.	.	.
!	!	!	!	!	!	!	!	!	!	!	!LO:LB:g=original	!	!	!	!	!	!	!
8.C/	6	.	8.C/	.	.	.	4aa\	.	4AA/	-xi	8A\	sunt	8e\	-re-	8cc\	-tus	.	.
.	.	.	.	.	.	.	.	.	.	.	8A\	a-	8a\	-nam	8cc\	e-	.	.
16AA/Jk	.	.	16AA/Jk	.	.	.	.	.	.	.	.	.	.	.	.	.	.	.
!LO:LB:g=original	!	!	!	!	!LO:MO:mod=.	!	!	!	!	!	!	!	!	!	!	!	!	!
8.BB/L	9 5|	.	8.BB/L	.	4cc\]	.	[2ddd\	.	8BB/	et	8d\	-mi-	4f#X\	mul-	4cc\	-o-	.	.
.	.	.	.	.	.	.	.	.	8BB/	ad-	8d\	-ci	.	.	.	.	.	.
16BB/K	.	.	16BB/K	.	.	.	.	.	.	.	.	.	.	.	.	.	.	.
8.D/	6	.	8.D/	.	4b/	.	.	.	8D\	-huc	8d\	tu-	16f#\	-ti-	4b\	-rum	.	.
.	.	.	.	.	.	.	.	.	.	.	.	.	16f#\	-pli-	.	.	.	.
!	!	!	!	!	!	!	!	!	!	!LO:MO:mod=sum	!	!	!	!	!	!	!	!
.	.	.	.	.	.	.	.	.	8BB/	su(m)	8d\	-i	8b\	-ca-	.	.	.	.
16BB/Jk	.	.	16BB/Jk	.	.	.	.	.	.	.	.	.	.	.	.	.	.	.
=45	=45	=45	=45	=45	=45	=45	=45	=45	=45	=45	=45	=45	=45	=45	=45	=45	=45	=45
8.C\L	9	.	8.C/L	.	2ee\	.	4ddd\]	.	4C/	te-	4d\	De-	4g\	-bun-	8ee\	si	1ryy	1ryy
.	.	.	.	.	.	.	.	.	.	.	.	.	.	.	8ee\	oc-	.	.
16C\K	.	.	16C/K	.	.	.	.	.	.	.	.	.	.	.	.	.	.	.
8.E\	6	.	8.E/	.	.	.	2ccc\	.	4C/	-cum	8c\	-us	8g\	-tur	16ee\	-ci-	.	.
.	.	.	.	.	.	.	.	.	.	.	.	.	.	.	16ee\	-de-	.	.
.	.	.	.	.	.	.	.	.	.	.	16c\	qui-	16g\	vi-	8ee\	-ris	.	.
16C\Jk	.	.	16C/Jk	.	.	.	.	.	.	.	16c\	-a	16g\	-ri	.	.	.	.
!LO:TX:t=P:problem=mixed beam	!	!	!LO:TX:t=P:problem=mixed beam	!	!	!	!	!	!	!	!	!	!	!	!	!	!	!
8.G\L	5 4	.	8.G\L	.	2dd\	.	.	.	8r	.	8.c\	di-	8.g\	san-	4.dd\	De-	.	.
.	.	.	.	.	.	.	.	.	8GG/	ac-	.	.	.	.	.	.	.	.
!	!	!	!	!	!	!	!	!	!	!	!	!	!	!LO:MO:mod=-gui-	!	!	!	!
16GG/K	.	.	16GG/K	.	.	.	.	.	.	.	16c\	-ci-	16g\	-gvi-	.	.	.	.
8.BB/	6	.	8.BB/	.	.	.	[4bb\	.	16GG/	-ci-	8B\	-tis	8g\	-num	.	.	.	.
.	.	.	.	.	.	.	.	.	16GG/	-pi-	.	.	.	.	.	.	.	.
!	!	!	!	!	!	!	!	!	!LO:TX:b:i:t=Volti Subito.:mod=	!	!	!	!	!	!	!	!	!
.	.	.	.	.	.	.	.	.	8GG/	-ent	8B\	in	16g\	de-	8dd\	-us	.	.
16GG/Jk	.	.	16GG/Jk	.	.	.	.	.	.	.	.	.	16g\	-cli-	.	.	.	.
!	!	!	!	!	!	!	!	!	!LO:PB:g=original	!	!	!	!	!	!	!	!	!
=46	=46	=46	=46	=46	=46	=46	=46	=46	=46	=46	=46	=46	=46	=46	=46	=46	=46	=46
8.AA/L	9	.	8.AA/L	.	2cc\	.	4bb\]	.	4AA/	in	8.B\	co-	4.e\	-na-	4.cc\	pec-	1ryy	1ryy
16AA/K	.	.	16AA/K	.	.	.	.	.	.	.	16A/	-gi-	.	.	.	.	.	.
8.C/	6	.	8.C/	.	.	.	2aa\	.	8AA/	va-	8A/	-ta-	.	.	.	.	.	.
.	.	.	.	.	.	.	.	.	8AA/	-ni-	8A/	-ti-	8e\	-te	8cc\	-ca-	.	.
16AA/Jk	.	.	16AA/Jk	.	.	.	.	.	.	.	.	.	.	.	.	.	.	.
8.E\L	4	.	8.E\L	.	2b/	.	.	.	8.E\	-ta-	4A/	-o-	8r	.	4b\	-to-	.	.
.	.	.	.	.	.	.	.	.	.	.	.	.	8e\	a	.	.	.	.
16E\K	.	.	16E\K	.	.	.	.	.	16E\	-te	.	.	.	.	.	.	.	.
8.G\	6	.	8.G\	.	.	.	[4gg\	.	8G\	ci-	4G/	-ne	4b\	me	4gg\	-res	.	.
.	.	.	.	.	.	.	.	.	8E\	-vi-	.	.	.	.	.	.	.	.
16E\Jk	.	.	16E\Jk	.	.	.	.	.	.	.	.	.	.	.	.	.	.	.
=47	=47	=47	=47	=47	=47	=47	=47	=47	=47	=47	=47	=47	=47	=47	=47	=47	=47	=47
8.F\L	9	.	8.F\L	.	2a/	.	4gg\]	.	4.F\	-ta-	8r	.	8r	.	4gg\	non-	1ryy	1ryy
.	.	.	.	.	.	.	.	.	.	.	8c\	per-	8a\	et	.	.	.	.
16F\K	.	.	16F\K	.	.	.	.	.	.	.	.	.	.	.	.	.	.	.
!	!	!	!	!	!	!	!	!	!	!	!	!	!LO:LB:g=original	!	!	!	!	!
8.A\	6	.	8.A\	.	.	.	2ffn\	.	.	.	8c\	-fe-	16a\	su-	8ff\	-ne	.	.
.	.	.	.	.	.	.	.	.	.	.	.	.	16a\	-per	.	.	.	.
.	.	.	.	.	.	.	.	.	8F\	-tes	8c\	-cto	16a\	i-	8ff\	qui	.	.
16F\Jk	.	.	16F\Jk	.	.	.	.	.	.	.	.	.	16a\	-ni-	.	.	.	.
8.C\L	4	.	8.C/L	.	2g/	.	.	.	4C/	tu-	8.c\	o-	8g\	-mi-	8.ff\	o-	.	.
.	.	.	.	.	.	.	.	.	.	.	.	.	8g\	-cos	.	.	.	.
16C\K	.	.	16C/K	.	.	.	.	.	.	.	16c\	-di-	.	.	16ff\	-de-	.	.
8.E\	6	.	8.E/	.	.	.	[4ee\	.	4C/	-as	4c\	-o	8g\	tu-	8ee\	-runt	.	.
.	.	.	.	.	.	.	.	.	.	.	.	.	8g\	-os	8ee\	te	.	.
16C\Jk	.	.	16C/Jk	.	.	.	.	.	.	.	.	.	.	.	.	.	.	.
!	!	!	!	!	!	!	!	!	!	!	!	!	!	!	!LO:LB:g=original	!	!	!
=48	=48	=48	=48	=48	=48	=48	=48	=48	=48	=48	=48	=48	=48	=48	=48	=48	=48	=48
8.D/L	9	.	8.D/L	.	2f/	.	4ee\]	.	16r	.	8.A\	o-	4.f\	ta-	8.ee\	Do-	1ryy	1ryy
.	.	.	.	.	.	.	.	.	16D/	et	.	.	.	.	.	.	.	.
.	.	.	.	.	.	.	.	.	16D/	i-	.	.	.	.	.	.	.	.
16C/K	.	.	16C/K	.	.	.	.	.	16C/	-ni-	16A\	-de-	.	.	16ee\	-mi-	.	.
8.BB/	6 5	.	8.BB/	.	.	.	2dd\	.	8BB/	-mi-	4B\	-ram	.	.	4dd\	-ne	.	.
.	.	.	.	.	.	.	.	.	8GG/	-ci	.	.	8f\	-bes-	.	.	.	.
16AA/Jk	.	.	16AA/Jk	.	.	.	.	.	.	.	.	.	.	.	.	.	.	.
!	!	!	!	!	!	!	!	!	!	!	!LO:LB:g=original	!	!	!	!	!	!	!
8.C\L	9	.	8.C\L	.	2e/	.	.	.	8.C\L	fa-	4G/	il-	4e\	-ce-	8.dd\	o-	.	.
16E\K	.	.	16E\K	.	.	.	.	.	16E\Jk	.	.	.	.	.	16dd\	-de-	.	.
!	!	!	!	!	!	!	!	!	!	!	!LO:TX:t=a:mod=	!	!	!	!	!	!	!
8.A\	3	.	8.A\	.	.	.	[4cc\	.	8A\	-cti	4A/	-los	4e\	-bam	4cc\	-ram	.	.
.	.	.	.	.	.	.	.	.	16A\LL	sunt	.	.	.	.	.	.	.	.
16G\Jk	.	.	16G\Jk	.	.	.	.	.	16G\JJ	.	.	.	.	.	.	.	.	.
=49	=49	=49	=49	=49	=49	=49	=49	=49	=49	=49	=49	=49	=49	=49	=49	=49	=49	=49
8.F\L	6 5	.	8.F\L	.	2d/	.	4cc\]	.	4F\	mi-	16A/	et	8d\	in-	8cc\	pro-	1ryy	1ryy
.	.	.	.	.	.	.	.	.	.	.	16A/	vi-	.	.	.	.	.	.
.	.	.	.	.	.	.	.	.	.	.	16A/	-de	8d\	ter-	16cc\	-ba	.	.
16D\K	.	.	16D\K	.	.	.	.	.	.	.	16A/	si	.	.	16cc\	me	.	.
8.G\	-	.	8.G\	.	.	.	2b-X/	.	8G\	-hi	8G/	vi-	16d\	-ro-	8b-X\	De-	.	.
.	.	.	.	.	.	.	.	.	.	.	.	.	16d\	-ga	.	.	.	.
!	!	!	!	!	!	!	!	!	!LO:SIC:s=16GLL	!	!	!	!	!	!	!	!	!
.	.	.	.	.	.	.	.	.	(16G\LL	et	16G/	-a	8d\	me	16b-\	-us	.	.
!	!	!	!	!	!	!	!	!	!LO:SIC:s=16FJJ	!	!	!	!	!	!	!	!	!
16F\Jk	.	.	16F\Jk	.	.	.	.	.	16F\JJ)	.	16G/	i-	.	.	16b-\	et	.	.
8.E\L	6 -5	.	8.E\L	.	8c/L	.	.	.	8.E\	de-	8G/	-ni-	8c/	et	4b-\	sci-	.	.
.	.	.	.	.	16d/L	.	.	.	.	.	8c\	-qui-	16d\LL	cog-	.	.	.	.
16C\Jk	.	.	16C\Jk	.	16e/JJ	.	.	.	16C/	-duc	.	.	16e\JJ	.	.	.	.	.
!LO:TX:t=P:problem=mixed beam	!	!	!LO:TX:t=P:problem=mixed beam	!	!	!	!	!	!	!	!	!	!	!	!	!	!	!
8.F\L	.	.	8.F\L	.	[4f/	.	4a/	.	8.F\	me	8c\	-ta-	8f\	-nos-	8a\	-to	.	.
.	.	.	.	.	.	.	.	.	.	.	8c\	-tis	8f\	-ce	8a\	cor	.	.
16AA/Jk	.	.	16AA/Jk	.	.	.	.	.	16AA/	in	.	.	.	.	.	.	.	.
!LO:LB:g=original	!	!	!	!	!LO:LB:g=original	!	!	!	!LO:LB:g=original	!	!	!	!	!	!	!	!	!
=50	=50	=50	=50	=50	=50	=50	=50	=50	=50	=50	=50	=50	=50	=50	=50	=50	=50	=50
8.BB-X/L	6 5	.	8.BB-X/L	.	4f/]	.	2gT/	.	16BB-/	vi-	4d\	in	16f\	se-	2gT/	-me-	1ryy	1ryy
.	.	.	.	.	.	.	.	.	16BB-/	-a	.	.	16f\	-mi-	.	.	.	.
.	.	.	.	.	.	.	.	.	8GG/	ae-	.	.	8f\	-tas	.	.	.	.
16GG/Jk	.	.	16GG/Jk	.	.	.	.	.	.	.	.	.	.	.	.	.	.	.
.	.	.	.	.	.	.	.	.	.	.	.	.	8qqf/	.	.	.	.	.
8.C/L	.	.	8.C/L	.	4et/	.	.	.	4C/	-ter-	4c\	me	4et\	me-	.	.	.	.
16CC/Jk	.	.	16CC/Jk	.	.	.	.	.	.	.	.	.	.	.	.	.	.	.
!LO:TX:t=P:problem=mixed beam	!	!	!LO:TX:t=P:problem=mixed beam	!	!	!	!	!	!	!LO:MO:mod=-na	!	!	!LO:LB:g=original	!LO:MO:mod=-as	!	!	!	!
!	!	!	!	!	!	!	!	!	!	!	!	!	!	!	!LO:SIC:v:s=4f	!	!	!
8FF/L	.	.	8FF/L	.	4f/	.	4f/	.	4FF/	-na.	4c\	est	4f\	-as.	4g/	-um	.	.
8F\J	.	.	8F\J	.	.	.	.	.	.	.	.	.	.	.	.	.	.	.
8r	.	.	8r	.	(16ff\LL	.	(16ff\LL	.	4r	.	4r	.	4r	.	4r	.	.	.
.	.	.	.	.	16a\)	.	16a\)	.	.	.	.	.	.	.	.	.	.	.
!LO:TX:b:t=Solo.:mod=	!	!	!LO:TX:a:i:t=Solo:mod=	!	!	!	!	!	!	!	!	!	!	!	!	!	!	!
8F\	.	.	8F\	.	(16a\	.	(16a\	.	.	.	.	.	.	.	.	.	.	.
.	.	.	.	.	16bn\JJ)	.	16bn\JJ)	.	.	.	.	.	.	.	.	.	.	.
!	!	!	!LO:LB:g=original	!	!	!	!	!	!	!	!	!	!	!	!	!	!	!
=51	=51	=51	=51	=51	=51	=51	=51	=51	=51	=51	=51	=51	=51	=51	=51	=51	=51	=51
!	!	!	!	!	!	!	!	!	!LO:TX:a:t=8.:mod=	!	!LO:TX:a:t=8.:mod=	!	!LO:TX:a:t=3.:mod=	!	!LO:TX:a:t=3.:mod=	!	!	!
8E\L	6	.	8E\L	.	8.ccT\L	.	8.ccT\L	.	00r	.	00r	.	0r	.	0r	.	1ryy	1ryy
8C\J	.	.	8C\J	.	.	.	.	.	.	.	.	.	.	.	.	.	.	.
.	.	.	.	.	(32b\LL	.	(32b\LL	.	.	.	.	.	.	.	.	.	.	.
.	.	.	.	.	32cc\JJJ)	.	32cc\JJJ)	.	.	.	.	.	.	.	.	.	.	.
8r	.	.	8r	.	(16gg\LL	.	(16gg\LL	.	.	.	.	.	.	.	.	.	.	.
.	.	.	.	.	16b-X\)	.	16b-X\)	.	.	.	.	.	.	.	.	.	.	.
8G\	-	.	8G\	.	(16b-\	.	(16b-\	.	.	.	.	.	.	.	.	.	.	.
.	.	.	.	.	16cc#X\JJ)	.	16cc#X\JJ)	.	.	.	.	.	.	.	.	.	.	.
!	!	!	!	!	!	!	!LO:LB:g=original	!	!	!	!	!	!	!	!	!	!	!
8F\L	6	.	8F\L	.	8.dd\L	.	8.ddT\L	.	.	.	.	.	.	.	.	.	.	.
8D\J	.	.	8D\J	.	.	.	.	.	.	.	.	.	.	.	.	.	.	.
.	.	.	.	.	(32cc#X\LL	.	(32cc#X\LL	.	.	.	.	.	.	.	.	.	.	.
.	.	.	.	.	32dd\JJJ)	.	32dd\JJJ)	.	.	.	.	.	.	.	.	.	.	.
8r	.	.	8r	.	(16aa\LL	.	(16aa\LL	.	.	.	.	.	.	.	.	.	.	.
.	.	.	.	.	16ccn\)	.	16ccn\)	.	.	.	.	.	.	.	.	.	.	.
8A\	.	.	8A\	.	(16cc\	.	(16cc\	.	.	.	.	.	.	.	.	.	.	.
.	.	.	.	.	16dd#X\JJ)	.	16dd#X\JJ)	.	.	.	.	.	.	.	.	.	.	.
=52	=52	=52	=52	=52	=52	=52	=52	=52	=52	=52	=52	=52	=52	=52	=52	=52	=52	=52
8G#X\L	6	.	8G#X\L	.	(16ee\LL	.	(16ee\LL	.	.	.	.	.	.	.	.	.	1ryy	1ryy
.	.	.	.	.	16b\)	.	16bn\)	.	.	.	.	.	.	.	.	.	.	.
8E\J	.	.	8E\J	.	(16b\	.	(16b\	.	.	.	.	.	.	.	.	.	.	.
.	.	.	.	.	16cc\JJ)	.	16cc\JJ)	.	.	.	.	.	.	.	.	.	.	.
8r	.	.	8r	.	(>16dd\LL	.	(>16dd\LL	.	.	.	.	.	.	.	.	.	.	.
!	!	!	!	!	!LO:TX:t=P:problem=mixed beam	!	!LO:TX:t=P:problem=mixed beam	!	!	!	!	!	!	!	!	!	!	!
.	.	.	.	.	16f/)	.	16f/)	.	.	.	.	.	.	.	.	.	.	.
8d\	.	.	8d\	.	(16f/	.	(16f/	.	.	.	.	.	.	.	.	.	.	.
.	.	.	.	.	16g#X/JJ)	.	16g#X/JJ)	.	.	.	.	.	.	.	.	.	.	.
16c\LL	6	.	16c\LL	.	8a/	.	8a/	.	.	.	.	.	.	.	.	.	.	.
16B\	.	.	16B\	.	.	.	.	.	.	.	.	.	.	.	.	.	.	.
16A\	.	.	16A\	.	4a/	.	4a/	.	.	.	.	.	.	.	.	.	.	.
16Gn\JJ	.	.	16Gn\JJ	.	.	.	.	.	.	.	.	.	.	.	.	.	.	.
16A\LL	.	.	16A\LL	.	.	.	.	.	.	.	.	.	.	.	.	.	.	.
16G\	.	.	16G\	.	.	.	.	.	.	.	.	.	.	.	.	.	.	.
16F#X\	.	.	16F#X\	.	[8a/	.	[8a/	.	.	.	.	.	.	.	.	.	.	.
16E\JJ	.	.	16E\JJ	.	.	.	.	.	.	.	.	.	.	.	.	.	.	.
=53	=53	=53	=53	=53	=53	=53	=53	=53	=53	=53	=53	=53	=53	=53	=53	=53	=53	=53
4.D#X/	6 5	.	4.D#X/	.	8a/L]	.	8a/L]	.	.	.	.	.	1r	.	1r	.	1ryy	1ryy
!	!	!	!	!	!LO:TX:t=P:problem=mixed beam	!	!LO:TX:t=P:problem=mixed beam	!	!	!	!	!	!	!	!	!	!	!
.	.	.	.	.	(16ff#X\L	.	(16ff#X\L	.	.	.	.	.	.	.	.	.	.	.
.	.	.	.	.	16ee\JJ)	.	16ee\JJ)	.	.	.	.	.	.	.	.	.	.	.
.	.	.	.	.	(16dd#X\LL	.	(16dd#X\LL	.	.	.	.	.	.	.	.	.	.	.
.	.	.	.	.	16cc\)	.	16cc\)	.	.	.	.	.	.	.	.	.	.	.
8D#/	.	.	8D#/	.	(16b\	.	(16b\	.	.	.	.	.	.	.	.	.	.	.
.	.	.	.	.	16a\JJ)	.	16a\JJ)	.	.	.	.	.	.	.	.	.	.	.
8E\L	.	.	8E\L	.	(32g/LLL	.	(32g/LLL	.	.	.	.	.	.	.	.	.	.	.
.	.	.	.	.	32f#X/JJ	.	32f#X/JJ	.	.	.	.	.	.	.	.	.	.	.
.	.	.	.	.	8.e/J)	.	8.e/J)	.	.	.	.	.	.	.	.	.	.	.
8c\	.	.	8c\	.	.	.	.	.	.	.	.	.	.	.	.	.	.	.
8A\	6|	.	8A\	.	4f#Xt/	.	4f#Xt/	.	.	.	.	.	.	.	.	.	.	.
8B\J	.	.	8B\J	.	.	.	.	.	.	.	.	.	.	.	.	.	.	.
=54	=54	=54	=54	=54	=54	=54	=54	=54	=54	=54	=54	=54	=54	=54	=54	=54	=54	=54
!	!	!	!	!	!	!	!	!	!	!	!	!	!	!LO:MO:mod=glo-	!LO:TX:a:t=Solo.:mod=	!LO:MO:mod=glo-	!	!
8E\L	.	.	8E\L	.	8e/L	.	8e/L	.	.	.	.	.	8.g\	Glo-	8.bn\	Glo-	1ryy	1ryy
!	!	!	!	!	!LO:TX:t=P:problem=mixed beam	!	!LO:TX:t=P:problem=mixed beam	!LO:MO:null:mod=p	!	!	!	!	!	!	!	!	!	!
8E\	.	.	8E\	.	8g\	p	8gg\J	.	.	.	.	.	.	.	.	.	.	.
.	.	.	.	.	.	.	.	.	.	.	.	.	16g\	-ri-	16b\	-ri-	.	.
!LO:TX:t=P:problem=mixed beam	!	!	!LO:TX:t=P:problem=mixed beam	!LO:DY:t=pia	!	!	!	!LO:MO:mod=.	!	!	!	!	!	!	!	!	!	!
8AA/	.	p	8AA/	p	8cc\	.	8aa\L	p	.	.	.	.	4a\	-a	4cc\	-a	.	.
8AA/J	.	.	8AA/J	.	[8cc\J	.	[8aa\J	.	.	.	.	.	.	.	.	.	.	.
!LO:LB:g=original	!	!	!	!	!LO:LB:g=original	!	!	!	!	!	!	!	!	!	!	!	!	!
8E\L	6 4	.	8E\L	.	8cc\L]	.	8aa\L]	.	.	.	.	.	4a\	Pa-	4cc\	Pa-	.	.
8E\	.	.	8E\	.	16b\L	.	16gg\L	.	.	.	.	.	.	.	.	.	.	.
.	.	.	.	.	16a\JJ	.	16ff#X\JJ	.	.	.	.	.	.	.	.	.	.	.
8E\	5 3	.	8E\	.	8b\L	.	8gg\L	.	.	.	.	.	4g\	-tri	4b\	-tri	.	.
8E\J	.	.	8E\J	.	8b\J	.	8gg\J	.	.	.	.	.	.	.	.	.	.	.
=55	=55	=55	=55	=55	=55	=55	=55	=55	=55	=55	=55	=55	=55	=55	=55	=55	=55	=55
8E\L	4 2#	.	8E\L	.	8a/L	.	8ff#X\L	.	00r	.	00r	.	8.f#X\	glo-	8.a\	glo-	1ryy	1ryy
8E\	.	.	8E\	.	8a/	.	8ff#\	.	.	.	.	.	.	.	.	.	.	.
.	.	.	.	.	.	.	.	.	.	.	.	.	16f#\	-ri-	16a\	-ri-	.	.
8D#X\	6 5	.	8D#X\	.	8a/	.	8ff#\	.	.	.	.	.	4f#\	-a	4a\	-a	.	.
8D#\J	.	.	8D#\J	.	[8a/J	.	[8ff#\J	.	.	.	.	.	.	.	.	.	.	.
8E\L	.	.	8E\L	.	16a/LL]	.	16ff#\LL]	.	.	.	.	.	8.f#\	Fi-	8.a\	Fi-	.	.
.	.	.	.	.	16f#X/J	.	16dd#X\J	.	.	.	.	.	.	.	.	.	.	.
!LO:TX:t=P:problem=mixed beam	!	!	!LO:TX:t=P:problem=mixed beam	!	!	!	!	!	!	!	!	!	!	!	!	!	!	!
8EE/	.	.	8EE/	.	8g/J	.	8ee\J	.	.	.	.	.	.	.	.	.	.	.
.	.	.	.	.	.	.	.	.	.	.	.	.	16e\	-li-	16g/	-li-	.	.
8E\	.	.	8E\	.	4r	.	4r	.	.	.	.	.	4e\	-o	4g/	-o	.	.
8Dn\J	2	.	8Dn\J	.	.	.	.	.	.	.	.	.	.	.	.	.	.	.
!	!	!	!	!	!	!	!LO:LB:g=original	!	!	!	!	!	!	!	!	!	!	!
=56	=56	=56	=56	=56	=56	=56	=56	=56	=56	=56	=56	=56	=56	=56	=56	=56	=56	=56
8C\L	.	.	8C\L	.	8r	.	16r	.	.	.	.	.	2g\	et	2ee\	et	1ryy	1ryy
.	.	.	.	.	.	.	16ee\KL	.	.	.	.	.	.	.	.	.	.	.
8C\	.	.	8C\	.	8e/L	.	8eet\J	.	.	.	.	.	.	.	.	.	.	.
8E\	6	.	8E\	.	8g/	.	16r	.	.	.	.	.	.	.	.	.	.	.
.	.	.	.	.	.	.	16ccc\KL	.	.	.	.	.	.	.	.	.	.	.
8C\J	.	.	8C\J	.	8e/J	.	8cccT\J	.	.	.	.	.	.	.	.	.	.	.
8r	.	.	8r	.	8r	.	16r	.	.	.	.	.	2b\	Spi-	2dd\	Spi-	.	.
.	.	.	.	.	.	.	16dd\KL	.	.	.	.	.	.	.	.	.	.	.
8G\L	.	.	8G\L	.	8b\L	.	8ddT\J	.	.	.	.	.	.	.	.	.	.	.
8B\	6	.	8B\	.	8dd\	.	16r	.	.	.	.	.	.	.	.	.	.	.
.	.	.	.	.	.	.	16bb\KL	.	.	.	.	.	.	.	.	.	.	.
8G\J	.	.	8G\J	.	8b\J	.	8bbt\J	.	.	.	.	.	.	.	.	.	.	.
=57	=57	=57	=57	=57	=57	=57	=57	=57	=57	=57	=57	=57	=57	=57	=57	=57	=57	=57
8r	.	.	8r	.	8r	.	16r	.	.	.	.	.	4.a\	-ri-	4.cc\	-ri-	1ryy	1ryy
.	.	.	.	.	.	.	16cc\KL	.	.	.	.	.	.	.	.	.	.	.
8D\L	7 #	.	8D\L	.	8f#X/L	.	8ccT\J	.	.	.	.	.	.	.	.	.	.	.
8F#X\	.	.	8F#X\	.	8a/	.	16r	.	.	.	.	.	.	.	.	.	.	.
.	.	.	.	.	.	.	16aa\KL	.	.	.	.	.	.	.	.	.	.	.
8D\J	.	.	8D\J	.	8f#/J	.	8aaT\J	.	.	.	.	.	8a\	-tu-	8cc\	-tu-	.	.
!	!	!	!	!	!	!	!	!	!	!	!	!	!LO:MO:null:mod=8qqa@	!	!	!	!	!
.	.	.	.	.	.	.	.	.	.	.	.	.	.	.	8qqcc/	.	.	.
8r	.	.	8r	.	8r	.	16r	.	.	.	.	.	2g\	-i	2b\	-i	.	.
.	.	.	.	.	.	.	16b\KL	.	.	.	.	.	.	.	.	.	.	.
8GG/L	.	.	8GG/L	.	8b\L	.	8bt\J	.	.	.	.	.	.	.	.	.	.	.
8BB/	6	.	8BB/	.	8dd\	.	16r	.	.	.	.	.	.	.	.	.	.	.
.	.	.	.	.	.	.	16gg\KL	.	.	.	.	.	.	.	.	.	.	.
8GG/J	.	.	8GG/J	.	8b\J	.	8ggT\J	.	.	.	.	.	.	.	.	.	.	.
=58	=58	=58	=58	=58	=58	=58	=58	=58	=58	=58	=58	=58	=58	=58	=58	=58	=58	=58
8C/L	6 5	.	8C/L	.	8a/L	.	16r	.	.	.	.	.	4g\	et	4a\	et	1ryy	1ryy
.	.	.	.	.	.	.	(16gg\LL	.	.	.	.	.	.	.	.	.	.	.
8C/	.	.	8C/	.	8a/	.	16ff#X\	.	.	.	.	.	.	.	.	.	.	.
.	.	.	.	.	.	.	16gg\JJ)	.	.	.	.	.	.	.	.	.	.	.
8D/	6 4	.	8D/	.	8b/	.	16r	.	.	.	.	.	4g\	Spi-	4b\	Spi-	.	.
.	.	.	.	.	.	.	(16gg\LL	.	.	.	.	.	.	.	.	.	.	.
8D/J	.	.	8D/J	.	8b/J	.	16ff#X\	.	.	.	.	.	.	.	.	.	.	.
.	.	.	.	.	.	.	16gg\JJ)	.	.	.	.	.	.	.	.	.	.	.
!	!	!	!LO:LB:g=original	!	!	!	!	!	!	!	!	!	!	!	!	!	!	!
8E\L	6	.	8E\L	.	8cc\L	.	16r	.	.	.	.	.	8.g\	-ri-	8.cc\	-ri-	.	.
.	.	.	.	.	.	.	(16gg\LL	.	.	.	.	.	.	.	.	.	.	.
8E\	.	.	8E\	.	8cc\	.	16ff#X\	.	.	.	.	.	.	.	.	.	.	.
.	.	.	.	.	.	.	16gg\JJ)	.	.	.	.	.	16g\	-tu-	16cc\	-tu-	.	.
8C\	6 5	.	8C\	.	8a\	.	16r	.	.	.	.	.	4g\	-i	4a\	-i	.	.
.	.	.	.	.	.	.	(16gg\LL	.	.	.	.	.	.	.	.	.	.	.
8C\J	.	.	8C\J	.	8a\J	.	16ff#X\	.	.	.	.	.	.	.	.	.	.	.
.	.	.	.	.	.	.	16gg\JJ)	.	.	.	.	.	.	.	.	.	.	.
!	!	!	!	!	!	!	!	!	!	!	!	!	!LO:LB:g=original	!	!	!	!	!
=59	=59	=59	=59	=59	=59	=59	=59	=59	=59	=59	=59	=59	=59	=59	=59	=59	=59	=59
8D\L	6 5	.	8D/L	.	8b/L	.	8gg\L	.	2r	.	2r	.	(4g\	San-	(4b\	San-	1ryy	1ryy
8D\	.	.	8D/	.	8b/	.	8gg\	.	.	.	.	.	.	.	.	.	.	.
8DD/	5 #	.	8DD/	.	8a/	.	8ff#X\	.	.	.	.	.	4f#X\)	.	4aT\)	.	.	.
8DD/J	.	.	8DD/J	.	8a/J	.	8ff#\J	.	.	.	.	.	.	.	.	.	.	.
!	!	!	!	!	!LO:SIC:s=16gLL|	!	!	!	!	!	!	!	!	!	!	!	!	!
!LO:LB:g=original	!	!	!	!	!LO:TX:t=P:problem=mixed beam	!LO:MO:null:mod=f	!	!	!	!	!	!	!	!	!	!LO:MO:mod=-cto	!	!
4GG/	.	.	4GG/	.	16g/LL	.	16gg|\LL	f	4r	.	4r	.	4g\	-cto	4g/	-cto:	.	.
!	!	!	!	!	!LO:SIC:s=(16gg	!LO:MO:mod=.	!	!	!	!	!	!	!	!	!	!	!	!
.	.	.	.	.	16gg\	f	(16gg\	.	.	.	.	.	.	.	.	.	.	.
.	.	.	.	.	16aa\	.	16aa\	.	.	.	.	.	.	.	.	.	.	.
!	!	!	!	!	!LO:SIC:s=16bbJJ)	!	!	!	!	!	!	!	!	!	!	!	!	!
.	.	.	.	.	16bb\JJ	.	16bb\JJ)	.	.	.	.	.	.	.	.	.	.	.
!	!	!	!LO:TX:b:t=Tutti&colon;:mod=	!	!	!	!	!	!	!	!	!	!	!	!	!	!	!
8r	.	.	8r	.	(16ccc\LL	.	(16ccc\LL	.	8r	.	8r	.	8r	.	8r	.	.	.
.	.	.	.	.	16ee\)	.	16ee\)	.	.	.	.	.	.	.	.	.	.	.
!LO:TX:b:i:t=tutti&colon;:mod=	!	!	!	!	!	!	!	!	!	!	!	!	!	!	!	!	!	!
8c\	.	.	8c\	.	(16ee\	.	(16ee\	.	16c\	si-	16c\	si-	16g\	Si-	16ee\	si-	.	.
.	.	.	.	.	16ff#X\JJ)	.	16ff#X\JJ)	.	16c\	-cut	16c\	-cut	16g\	-cut	16ee\	-cut	.	.
!	!	!	!	!	!	!	!LO:LB:g=original	!	!	!	!	!	!	!	!	!	!	!
=60	=60	=60	=60	=60	=60	=60	=60	=60	=60	=60	=60	=60	=60	=60	=60	=60	=60	=60
8B\L	6	.	8B\L	.	8.ggT\L	.	8.ggT\L	.	8B\	e-	8d\	e-	8g\	e-	8dd\	e-	1ryy	1ryy
8G\J	.	.	8G\J	.	.	.	.	.	8G\	-rat	8d\	-rat	8g\	-rat	8b\	-rat	.	.
.	.	.	.	.	(32ff#X\LL	.	(32ff#X\LL	.	.	.	.	.	.	.	.	.	.	.
.	.	.	.	.	32gg\JJJ)	.	32gg\JJJ)	.	.	.	.	.	.	.	.	.	.	.
8r	.	.	8r	.	(16ccc\LL	.	(16ccc\LL	.	8r	.	8r	.	8r	.	8r	.	.	.
.	.	.	.	.	16ee\)	.	16ee\)	.	.	.	.	.	.	.	.	.	.	.
8c\	.	.	8c\	.	(16ee\	.	(16ee\	.	16c\	in	16c\	in	16g\	in	16ee\	in	.	.
.	.	.	.	.	16ff#X\JJ)	.	16ff#X\JJ)	.	16c\	prin-	16c\	prin-	16g\	prin-	16ee\	prin-	.	.
!	!	!	!	!	!LO:LB:g=original	!	!	!	!	!	!	!	!	!	!	!	!	!
8B\L	6	.	8B\L	.	8.ggT\L	.	8.ggT\L	.	16B\	-ci-	16d\	-ci-	16g\	-ci-	16dd\	-ci-	.	.
.	.	.	.	.	.	.	.	.	16B\	-pi-	16d\	-pi-	16g\	-pi-	16dd\	-pi-	.	.
8G\J	.	.	8G\J	.	.	.	.	.	8G\	-o	8d\	-o	8g\	-o	8b\	-o	.	.
.	.	.	.	.	(32ff#X\LL	.	(32ff#X\LL	.	.	.	.	.	.	.	.	.	.	.
.	.	.	.	.	32gg\JJJ)	.	32gg\JJJ)	.	.	.	.	.	.	.	.	.	.	.
!	!	!	!	!	!	!	!	!	!	!	!LO:LB:g=original	!	!	!	!	!	!	!
8r	.	.	8r	.	(16aa\LL	.	(16aa\LL	.	8r	.	8r	.	8r	.	8r	.	.	.
.	.	.	.	.	16cc\)	.	16cc\)	.	.	.	.	.	.	.	.	.	.	.
8A\	.	.	8A\	.	(16cc\	.	(16cc\	.	16A\	si-	16A/	si-	16e\	si-	16cc\	si-	.	.
!	!	!	!	!	!	!	!	!	!	!	!	!	!	!	!	!LO:MO:mod=-cut	!	!
.	.	.	.	.	16dd#X\JJ)	.	16dd#X\JJ)	.	16A\	-cut	16A/	-cut	16e\	-cut	16cc\	-cu[[t]]	.	.
!	!	!	!	!	!	!	!	!	!	!	!	!	!	!	!LO:LB:g=original	!	!	!
=61	=61	=61	=61	=61	=61	=61	=61	=61	=61	=61	=61	=61	=61	=61	=61	=61	=61	=61
8G#X\L	6	.	8G#X\L	.	8.eet\L	.	8.eet\L	.	8G#X\	e-	8B\	e-	8e\	e-	8b\	e-	1ryy	1ryy
8E\J	.	.	8E\J	.	.	.	.	.	8E\	-rat	8B\	-rat	8e\	-rat	8g#X/	-rat	.	.
.	.	.	.	.	(32dd#X\LL	.	(32dd#X\LL	.	.	.	.	.	.	.	.	.	.	.
.	.	.	.	.	32ee\JJJ)	.	32ee\JJJ)	.	.	.	.	.	.	.	.	.	.	.
8r	.	.	8r	.	(16aa\LL	.	(16aa\LL	.	8r	.	8r	.	8r	.	8r	.	.	.
.	.	.	.	.	16cc\)	.	16cc\)	.	.	.	.	.	.	.	.	.	.	.
8A\	.	.	8A\	.	(16cc\	.	(16cc\	.	16A\	in	16A/	in	16e\	in	16cc\	in	.	.
.	.	.	.	.	16dd#X\JJ)	.	16dd#X\JJ)	.	16A\	prin-	16A/	prin-	16e\	prin-	16cc\	prin-	.	.
!	!	!	!	!	!	!	!	!	!LO:LB:g=original	!	!	!	!	!	!	!	!	!
8G#X\L	6	.	8G#X\L	.	8.eet\L	.	8.eet\L	.	16G#X\	-ci-	16B\	-ci-	16e\	-ci-	16b\	-ci-	.	.
.	.	.	.	.	.	.	.	.	16G#\	-pi-	16B\	-pi-	16e\	-pi-	16b\	-pi-	.	.
8E\J	.	.	8E\J	.	.	.	.	.	8E\	-o	8B\	-o	8e\	-o	8g#X/	-o	.	.
.	.	.	.	.	(32dd#X\LL	.	(32dd#X\LL	.	.	.	.	.	.	.	.	.	.	.
.	.	.	.	.	32ee\JJJ)	.	32ee\JJJ)	.	.	.	.	.	.	.	.	.	.	.
8r	.	.	8r	.	(16ff\LL	.	(16ff\LL	.	8r	.	8r	.	8r	.	8r	.	.	.
.	.	.	.	.	16a\)	.	16a\)	.	.	.	.	.	.	.	.	.	.	.
8F\	.	.	8F\	.	(16a\	.	(16a\	.	8F\	et	8F/	et	8a\	et	8cc\	et	.	.
.	.	.	.	.	16b\JJ)	.	16b\JJ)	.	.	.	.	.	.	.	.	.	.	.
=62	=62	=62	=62	=62	=62	=62	=62	=62	=62	=62	=62	=62	=62	=62	=62	=62	=62	=62
8D\L	6	.	8D/L	.	8.ccT\L	.	8.ccT\L	.	8E\	nunc	8G/	nunc	8g\	nunc	8cc\	nunc	1ryy	1ryy
8C\J	.	.	8C/J	.	.	.	.	.	8C/	et	8G/	et	8e\	et	8cc\	et	.	.
.	.	.	.	.	(32b\LL	.	(32b\LL	.	.	.	.	.	.	.	.	.	.	.
.	.	.	.	.	32cc\JJJ)	.	32cc\JJJ)	.	.	.	.	.	.	.	.	.	.	.
8r	.	.	8r	.	(16ff\LL	.	(16ff\LL	.	8r	.	8r	.	8r	.	8r	.	.	.
.	.	.	.	.	16a\)	.	16a\)	.	.	.	.	.	.	.	.	.	.	.
8F\	.	.	8F\	.	(16a\	.	(16a\	.	8F\	et	8F/	et	8a\	et	8cc\	et	.	.
.	.	.	.	.	16b\JJ)	.	16b\JJ)	.	.	.	.	.	.	.	.	.	.	.
!	!	!	!	!	!	!	!	!	!	!	!	!	!LO:LB:g=original	!	!	!	!	!
8E\L	6	.	8D/L	.	8.ccT\L	.	8.ccT\L	.	8E\	sem-	8G/	sem-	8g\	sem-	8cc\	sem-	.	.
8C\J	.	.	8C/J	.	.	.	.	.	8C/	-per	8G/	-per	8e\	-per	8cc\	-per	.	.
.	.	.	.	.	(32b\LL	.	(32b\LL	.	.	.	.	.	.	.	.	.	.	.
.	.	.	.	.	32cc\JJJ)	.	32cc\JJJ)	.	.	.	.	.	.	.	.	.	.	.
8F\L	.	.	8F\L	.	(16aa\LL	.	(16aa\LL	.	8F\	et	8A/	et	8d\	et	8cc\	et	.	.
!	!	!	!	!	!LO:SIC:s=16cc)	!	!	!	!	!	!	!	!	!	!	!	!	!
.	.	.	.	.	16cc\	.	16cc\)	.	.	.	.	.	.	.	.	.	.	.
!	!	!	!	!	!LO:SIC:s=(16dd	!	!LO:SIC:s=(16dd	!	!	!	!	!	!	!	!	!	!	!
8F#X\J	6	.	8F#X\J	.	16dd\)	.	16dd\	.	8F#X\	in	8A/	in	8d\	in	8cc\	in	.	.
!	!	!	!	!	!LO:SIC:s=16aJJ)	!	!LO:SIC:s=16aJJ)	!	!	!	!	!	!	!	!	!	!	!
.	.	.	.	.	16a\JJ	.	16a\JJ	.	.	.	.	.	.	.	.	.	.	.
=63	=63	=63	=63	=63	=63	=63	=63	=63	=63	=63	=63	=63	=63	=63	=63	=63	=63	=63
!	!	!	!	!	!LO:MO:null:mod=8qqcc@	!	!	!	!	!	!	!	!	!	!	!	!	!
.	.	.	.	.	.	.	8qqcc/	.	.	.	.	.	.	.	.	.	.	.
8r	.	.	8r	.	4b\	.	4b/	.	8.G\	sae-	8.B\	sae-	8.d\	sae-	8.b\	sae-	1ryy	1ryy
8G|\L	.	.	8G|\L	.	.	.	.	.	.	.	.	.	.	.	.	.	.	.
.	.	.	.	.	.	.	.	.	16G\	-cu-	16B\	-cu-	16d\	-cu-	16b\	-cu-	.	.
8D|\	.	.	8D|\	.	(4gg\	.	4r	.	4G\	-la	4B\	-la	4d\	-la	4gg\	-la	.	.
8BB|\J	.	.	8BB|\J	.	.	.	.	.	.	.	.	.	.	.	.	.	.	.
!LO:TX:a:t=T&colon;S&colon;:mod=	!	!	!LO:TX:a:t=T&colon;S&colon;:mod=	!	!	!	!	!	!	!	!	!	!	!	!	!	!	!
!LO:TX:b:i:t=Volti&colon;:mod=	!	!	!	!	!	!	!	!	!	!	!	!	!	!	!	!	!	!
[2GG/	.	.	[2GG/	.	8gg\L)	.	[2aa\	.	4.G\	sae-	4.c\	sae-	4.a\	sae-	4.gg\	sae-	.	.
.	.	.	.	.	(16ff\L	.	.	.	.	.	.	.	.	.	.	.	.	.
.	.	.	.	.	16ee\JJ)	.	.	.	.	.	.	.	.	.	.	.	.	.
.	.	.	.	.	(16dd\LL	.	.	.	.	.	.	.	.	.	.	.	.	.
.	.	.	.	.	16cc\)	.	.	.	.	.	.	.	.	.	.	.	.	.
.	.	.	.	.	(16b\	.	.	.	8G\	-cu-	8c\	-cu-	8a\	-cu-	8gg\	-cu-	.	.
.	.	.	.	.	16a\JJ)	.	.	.	.	.	.	.	.	.	.	.	.	.
!LO:PB:g=original	!	!	!	!	!	!	!	!	!	!	!	!	!	!	!	!	!	!
=64	=64	=64	=64	=64	=64	=64	=64	=64	=64	=64	=64	=64	=64	=64	=64	=64	=64	=64
1GG/_	.	.	1GG/_	.	[2ff\	.	8aa\L]	.	4G\	-lo-	4d\	-lo-	4a\	-lo-	4ff\	-lo-	1ryy	1ryy
.	.	.	.	.	.	.	(16gg\L	.	.	.	.	.	.	.	.	.	.	.
.	.	.	.	.	.	.	16ff\JJ)	.	.	.	.	.	.	.	.	.	.	.
.	.	.	.	.	.	.	(16ee\LL	.	4G\	-rum	4d\	-rum	4a\	-rum	4ff\	-rum	.	.
.	.	.	.	.	.	.	16dd\)	.	.	.	.	.	.	.	.	.	.	.
.	.	.	.	.	.	.	(16cc\	.	.	.	.	.	.	.	.	.	.	.
.	.	.	.	.	.	.	16b\JJ)	.	.	.	.	.	.	.	.	.	.	.
!	!	!	!	!	!	!	!LO:LB:g=original	!	!	!	!	!	!	!	!	!	!	!
*	*	*	*	*	*	*	*	*	*	*	*	*ij	*	*ij	*	*	*	*
.	.	.	.	.	8ff\L]	.	[2gg\	.	[2G\	a-	4.B\	sae-	4.g\	sae-	4.ff\	sae-	.	.
.	.	.	.	.	(16ee\L	.	.	.	.	.	.	.	.	.	.	.	.	.
.	.	.	.	.	16dd\JJ)	.	.	.	.	.	.	.	.	.	.	.	.	.
.	.	.	.	.	(16cc\LL	.	.	.	.	.	.	.	.	.	.	.	.	.
.	.	.	.	.	16b\)	.	.	.	.	.	.	.	.	.	.	.	.	.
.	.	.	.	.	(16a\	.	.	.	.	.	8B\	-cu-	8g\	-cu-	8ff\	-cu-	.	.
.	.	.	.	.	16g\JJ)	.	.	.	.	.	.	.	.	.	.	.	.	.
!	!	!	!	!	!	!	!	!	!	!	!	!	!	!	!LO:LB:g=original	!	!	!
=65	=65	=65	=65	=65	=65	=65	=65	=65	=65	=65	=65	=65	=65	=65	=65	=65	=65	=65
1GG/_	.	.	1GG/_	.	[2ee\	.	8gg\L]	.	1G\_	.	4c\	-lo-	4g\	-lo-	4ee\	-lo-	1ryy	1ryy
.	.	.	.	.	.	.	(16ff\L	.	.	.	.	.	.	.	.	.	.	.
.	.	.	.	.	.	.	16ee\JJ)	.	.	.	.	.	.	.	.	.	.	.
.	.	.	.	.	.	.	(16dd\LL	.	.	.	4c\	-rum	4g\	-rum	4ee\	-rum	.	.
.	.	.	.	.	.	.	16cc\)	.	.	.	.	.	.	.	.	.	.	.
.	.	.	.	.	.	.	(16b\	.	.	.	.	.	.	.	.	.	.	.
.	.	.	.	.	.	.	16a\JJ)	.	.	.	.	.	.	.	.	.	.	.
*	*	*	*	*	*	*	*	*	*	*	*	*Xij	*	*Xij	*	*ij	*	*
.	.	.	.	.	8ee\L]	.	[2ff\	.	.	.	4.A/	sae-	4.f\	sae-	4.ee\	sae-	.	.
.	.	.	.	.	(16dd\L	.	.	.	.	.	.	.	.	.	.	.	.	.
.	.	.	.	.	16cc\JJ)	.	.	.	.	.	.	.	.	.	.	.	.	.
!	!	!	!	!	!LO:LB:g=original	!	!	!	!	!	!	!	!	!	!	!	!	!
.	.	.	.	.	(16b/LL	.	.	.	.	.	.	.	.	.	.	.	.	.
.	.	.	.	.	16a/)	.	.	.	.	.	.	.	.	.	.	.	.	.
.	.	.	.	.	(16g/	.	.	.	.	.	8A/	-cu-	8f\	-cu-	8ee\	-cu-	.	.
.	.	.	.	.	16f/JJ)	.	.	.	.	.	.	.	.	.	.	.	.	.
!	!	!	!	!	!	!	!	!	!	!	!LO:PB:g=original	!	!	!	!	!	!	!
=66	=66	=66	=66	=66	=66	=66	=66	=66	=66	=66	=66	=66	=66	=66	=66	=66	=66	=66
1GG/]	.	.	1GG/]	.	2dd\	.	8ff\L]	.	2.G\]	.	4B\	-lo-	4f\	-lo-	4dd\	-lo-	1ryy	1ryy
.	.	.	.	.	.	.	(16ee\L	.	.	.	.	.	.	.	.	.	.	.
.	.	.	.	.	.	.	16dd\JJ)	.	.	.	.	.	.	.	.	.	.	.
.	.	.	.	.	.	.	(16cc\LL	.	.	.	4B\	-rum	4f\	-rum	4dd\	-rum	.	.
*	*	*	*	*	*	*	*	*	*	*	*	*	*	*	*	*Xij	*	*
.	.	.	.	.	.	.	16b\)	.	.	.	.	.	.	.	.	.	.	.
.	.	.	.	.	.	.	(16a\	.	.	.	.	.	.	.	.	.	.	.
.	.	.	.	.	.	.	16g\JJ)	.	.	.	.	.	.	.	.	.	.	.
.	.	.	.	.	8.cc\L	.	(32ee\LLL	.	.	.	2G/	a-	(4e\	a-	(4cc\	a-	.	.
.	.	.	.	.	.	.	32dd\JJ	.	.	.	.	.	.	.	.	.	.	.
.	.	.	.	.	.	.	8.cc\J)	.	.	.	.	.	.	.	.	.	.	.
.	.	.	.	.	32b\LL	.	.	.	.	.	.	.	.	.	.	.	.	.
.	.	.	.	.	32a\JJJ	.	.	.	.	.	.	.	.	.	.	.	.	.
.	.	.	.	.	.	.	8qqee/	.	.	.	.	.	.	.	.	.	.	.
.	.	.	.	.	4bt\	.	4ddT\	.	4GG/	.	.	.	4dT\)	.	4bt\)	.	.	.
=67	=67	=67	=67	=67	=67	=67	=67	=67	=67	=67	=67	=67	=67	=67	=67	=67	=67	=67
8C\L	.	.	8C\L	.	4cc\	.	4cc\	.	4C/	men	4G/	-men	4e\	-men	4cc\	-men	1ryy	1ryy
8c\J	.	.	8c\J	.	.	.	.	.	.	.	.	.	.	.	.	.	.	.
8r	.	.	8r	.	(16ccc\LL	.	(16ccc\LL	.	8r	.	8r	.	8r	.	8r	.	.	.
.	.	.	.	.	16ee\)	.	16ee\)	.	.	.	.	.	.	.	.	.	.	.
!LO:TX:b:t=Solo.:mod=	!	!	!LO:TX:a:i:t=Solo.:mod=	!	!	!	!	!	!	!	!	!	!	!	!	!	!	!
8c\	.	.	8c\	.	(16ee\	.	(16ee\	.	16c\	et	16c\	et	16g\	et	16ee\	et	.	.
.	.	.	.	.	16ff#X\JJ)	.	16ff#X\JJ)	.	16c\	in	16c\	in	16g\	in	16ee\	in	.	.
!	!	!	!	!	!	!	!	!	!LO:LB:g=original	!	!	!	!	!	!	!	!	!
8B\L	6	.	8B\L	.	8.ggT\L	.	8.ggT\L	.	16B\	sae-	16d\	sae-	16g\	sae-	16dd\	sae-	.	.
.	.	.	.	.	.	.	.	.	16B\	-cu-	16d\	-cu-	16g\	-cu-	16dd\	-cu-	.	.
8G\J	.	.	8G\J	.	.	.	.	.	8G\	-la	8d\	-la	8g\	-la	8b\	-la	.	.
.	.	.	.	.	(32ff#\LL	.	(32ff#X\LL	.	.	.	.	.	.	.	.	.	.	.
.	.	.	.	.	32gg\JJJ)	.	32gg\JJJ)	.	.	.	.	.	.	.	.	.	.	.
8r	.	.	8r	.	(16ccc\LL	.	(16ccc\LL	.	8r	.	8r	.	8r	.	8r	.	.	.
.	.	.	.	.	16ee\)	.	16ee\)	.	.	.	.	.	.	.	.	.	.	.
8c\	.	.	8c\	.	(16ee\	.	(16ee\	.	16c\	sae-	16c\	sae-	16g\	sae-	16ee\	sae-	.	.
.	.	.	.	.	16ff#X\JJ)	.	16ff#X\JJ)	.	16c\	-cu-	16c\	-cu-	16g\	-cu-	16ee\	-cu-	.	.
!	!	!	!LO:LB:g=original	!	!	!	!	!	!	!	!	!	!LO:LB:g=original	!	!	!	!	!
=68	=68	=68	=68	=68	=68	=68	=68	=68	=68	=68	=68	=68	=68	=68	=68	=68	=68	=68
8B\L	6	.	8B\L	.	8.ggT\L	.	8.ggT\L	.	8B\	-lo-	8d\	-lo-	8g\	-lo-	8dd\	-lo-	1ryy	1ryy
8G\J	.	.	8G\J	.	.	.	.	.	8G\	-rum	8d\	-rum	8g\	-rum	8b\	-rum	.	.
.	.	.	.	.	(32ff#X\LL	.	(32ff#X\LL	.	.	.	.	.	.	.	.	.	.	.
.	.	.	.	.	32gg\JJJ)	.	32gg\JJJ)	.	.	.	.	.	.	.	.	.	.	.
8r	.	.	8r	.	(16ffn\LL	.	(16ffn\LL	.	8r	.	8r	.	8r	.	8r	.	.	.
.	.	.	.	.	16a\)	.	16a\)	.	.	.	.	.	.	.	.	.	.	.
8F\	.	.	8F\	.	(16a\	.	(16a\	.	16F\	et	16F/	et	16a\	et	16cc\	et	.	.
.	.	.	.	.	16b\JJ)	.	16b\JJ)	.	16F\	in	16F/	in	16a\	in	16cc\	in	.	.
8E\L	6	.	8E\L	.	8.ccT\L	.	8.ccT\L	.	16E\	sae-	16G/	sae-	16g\	sae-	16cc\	sae-	.	.
.	.	.	.	.	.	.	.	.	16E\	-cu-	16G/	-cu-	16g\	-cu-	16cc\	-cu-	.	.
8C\J	.	.	8C\J	.	.	.	.	.	8C/	-la	8G/	-la	8e\	-la	8cc\	-la	.	.
.	.	.	.	.	(32b\LL	.	(32b\LL	.	.	.	.	.	.	.	.	.	.	.
.	.	.	.	.	32cc\JJJ)	.	32cc\JJJ)	.	.	.	.	.	.	.	.	.	.	.
8r	.	.	8r	.	(16ff\LL	.	(16ff\LL	.	8r	.	8r	.	8r	.	8r	.	.	.
.	.	.	.	.	16a\)	.	16a\)	.	.	.	.	.	.	.	.	.	.	.
8F\	.	.	8F\	.	(16a\	.	(16a\	.	16F\	sae-	16F/	sae-	16a\	sae-	16cc\	sae-	.	.
!	!	!	!	!	!	!	!LO:SIC:v:t=custos cc	!	!	!	!	!	!	!	!	!	!	!
.	.	.	.	.	16b\JJ)	.	16b\JJ)	.	16F\	-cu-	16F/	-cu-	16a\	-cu-	16cc\	-cu-	.	.
!	!	!	!	!	!	!	!LO:LB:g=original	!	!	!	!	!	!	!	!LO:LB:g=original	!	!	!
=69	=69	=69	=69	=69	=69	=69	=69	=69	=69	=69	=69	=69	=69	=69	=69	=69	=69	=69
8E\L	6	.	8E\L	.	8.ccT\L	.	8.ccT\L	.	8E\	-lo-	8G/	-lo-	8g\	-lo-	8cc\	-lo-	1ryy	1ryy
8C\J	.	.	8C\J	.	.	.	.	.	8C/	-rum	8G/	-rum	8e\	-rum	8cc\	-rum	.	.
.	.	.	.	.	(32b\LL	.	(32b\LL	.	.	.	.	.	.	.	.	.	.	.
.	.	.	.	.	32cc\JJJ)	.	32cc\JJJ)	.	.	.	.	.	.	.	.	.	.	.
8r	.	.	8r	.	(16ccc\LL	.	(16ccc\LL	.	8r	.	8r	.	8r	.	8r	.	.	.
.	.	.	.	.	16ee\)	.	16ee\)	.	.	.	.	.	.	.	.	.	.	.
*	*	*	*	*	*	*	*	*	*	*ij	*	*ij	*	*ij	*	*ij	*	*
8c\	.	.	8c\	.	(16ee\	.	(16ee\	.	16c\	sae-	16c\	sae-	16g\	sae-	16ee\	sae-	.	.
.	.	.	.	.	16ff#X\JJ)	.	16ff#X\JJ)	.	16c\	-cu-	16c\	-cu-	16g\	-cu-	16ee\	-cu-	.	.
8B\L	6	.	8B\L	.	(16gg\LL	.	(16gg\LL	.	8B\	-lo-	8d\	-lo-	8g\	-lo-	8dd\	-lo-	.	.
.	.	.	.	.	16dd\)	.	16dd\)	.	.	.	.	.	.	.	.	.	.	.
8G\J	.	.	8G\J	.	(16dd\	.	(16dd\	.	8G\	-rum	8d\	-rum	8g\	-rum	8b\	-rum	.	.
*	*	*	*	*	*	*	*	*	*	*Xij	*	*Xij	*	*Xij	*	*Xij	*	*
.	.	.	.	.	16ee\JJ)	.	16ee\JJ)	.	.	.	.	.	.	.	.	.	.	.
!	!	!	!	!	!	!	!	!	!	!	!LO:LB:g=original	!	!	!	!	!	!	!
8r	.	.	8r	.	(16ffn\LL	.	(16ffn\LL	.	8r	.	8r	.	8r	.	8r	.	.	.
.	.	.	.	.	16a\)	.	16a\)	.	.	.	.	.	.	.	.	.	.	.
!	!	!	!	!	!	!	!	!	!	!	!	!	!LO:SIC:s=16cLL	!	!LO:SIC:s=16aLL	!	!	!
8F\	.	.	8F\	.	(16a\	.	(16a\	.	8F\	a-	8F/	a-	(16c\LL	a-	(16a\LL	a-	.	.
!	!	!	!	!	!	!	!	!	!	!	!	!	!LO:SIC:s=16dJJ	!	!LO:SIC:s=16bJJ	!	!	!
.	.	.	.	.	16b\JJ)	.	16b\JJ)	.	.	.	.	.	16d\JJ)	.	16b\JJ)	.	.	.
=70	=70	=70	=70	=70	=70	=70	=70	=70	=70	=70	=70	=70	=70	=70	=70	=70	=70	=70
8E\L	6	.	8E\L	.	8.cc\L	.	8.cc\L	.	8E\L	.	2G/	.	4e\	.	4.cc\	.	1ryy	1ryy
8C\	.	.	8C\	.	.	.	.	.	8C\J	.	.	.	.	.	.	.	.	.
.	.	.	.	.	16dd\Jk	.	16dd\Jk	.	.	.	.	.	.	.	.	.	.	.
!	!	!	!	!	!LO:MO:null:mod=8qqee@	!	!	!	!LO:TX:t=P:problem=mixed beam	!	!	!	!	!	!	!	!	!
.	.	.	.	.	.	.	8qqee/	.	.	.	.	.	.	.	.	.	.	.
8G\	4	.	8G\	.	4ddT\	.	4ddT\	.	8G\L	.	.	.	4d\	.	.	.	.	.
!LO:TX:t=P:problem=mixed beam	!	!	!LO:TX:t=P:problem=mixed beam	!	!	!	!	!	!	!	!	!	!	!	!	!	!	!
8GG/J	3	.	8GG/J	.	.	.	.	.	8GG/J	.	.	.	.	.	8b\	.	.	.
4C/	.	.	4C/	.	4cc\	.	4cc\	.	4C/	-men.	4G/	-men.	4e\	-men.	4cc\	-men.	.	.
4r	.	.	4r	.	4r	.	4r	.	4r	.	4r	.	4r	.	4r	.	.	.
==	==	==	==	==	==	==	==	==	==	==	==	==	==	==	==	==	==	==
*-	*-	*-	*-	*-	*-	*-	*-	*-	*-	*-	*-	*-	*-	*-	*-	*-	*-	*-
!!!system-decoration: [(g1)][(g2)][(g3)][(g4)]
!!!system-decoration-mod: <s9>[(g1)][(g2)][(g3)]<s10>
!!LO:MO:ori
!!!RDF**dynam: f = "for"
!!!RDF**dynam: p = "pian"
!!LO:MO:mod
!! !!!RDF**kern: @ = marked note, color=grey
!!LO:MO:end
!!!RDF**kern: > = above
!!!RDF**kern: < = below
!!!RDF**kern: | = vertical stroke
!!!filter-modern: shed -k -e "s/([^a-gA-Gn#X-])[<>]/$1/g" | extract -k 1,3-$,2 | shed -e "s/:rj/:RJ/L" | shed -e "s/^custos:/Xcustos:/I" | shed -e "s/^(\d+[\/\\]right)/$1yy/I" | shed -e "s/TX(.*):t=P:/tx$1:t=P:/LG" | shed -e "s/(LO:DY.*):t=(.*$)/$1:T=$2/L; s/LO:DY(.*)(:a:)(.*)/LO:dy:$1$2$3/L; s/LO:DY(.*)(:b:)(.*)/LO:dy:$1$2$3/L; s/LO:DY(.*)(:rj:)(.*)/LO:dy:$1$2$3/L"| sic -sq | modori -m | autostem -r | tie -s | humtr -p | shed -e "s/yy//"
!!!ENC: Marta Opryszak
!!!END: 2022-04-07
!!!EED: Andrzej Borzym
!!!EEV: 2022-04-27
!!!ENC-modern: Andrzej Kubiczek
!!!END-modern: 2022-09-26
